(G-Code generated by ORNL Slicer 2 version 2)
(Copyright © 2024 ORNL)
(G-Code Syntax: Okuma)
(Filename: )

(Slicing Parameters)
(Nozzle Diameter: 3.5mm)
(Printer Base Offset: -0.7096mm)
(Layer Height: 0.76mm)
(Default Extrusion Width: 3.5mm)
(Perimeter Count: 1)
(Infill Percentage: 212.121%)
(Infill Pattern: Lines)

( --- header.txt --- )
( -------------------- laser_toolchange.txt --- )
T100 M6
( -------------------- )
( -------------------- MOVED FROM LASER TECH FILE --- )
(DISK_SPEED      XX  = DISK_SPEED)
(CARRIER_GAS     5   = CARRIER_GAS)
(SHIELDING	10	= hyperMILL_AM_SHIELDING_GAS)
M369    (MIST COLLECTOR ON)
M130                (OK TO RUN WITH NO SPINDLE RPM)
M1510               (LASER HEAD DOWN)
/G115 SPS=3.5  (SPOT SIZE SET TO VARIABLE)
/M1507             (FOCAL CONTROL ON. ALLOWS FOCAL POINT CHANGE)
/LHD=VC100         (ACTUAL SPOT SIZE CHANGE. VC100 IS SET BY G115 SPS=)
/LPWW=2000         (SET VARIABLE FOR LASER POWER, WATTS)
/M1500             (CHANGE FOCAL POINT)
/M1508             (FOCAL CONTROL OFF)
DW = 0.01 (Dwell time between border and layer)
/M1501             (LASER READY)
/LPW=0             (LASER POWER IS ZERO)
/M1541             (HOPPER-OFF: HOPPER_OFF)
/M1503     (LASER ON)
M671
VC1000 = 0
( -------------------- MOVED FROM LASER TECH FILE --- )
( --- files_x\job_start.txt --- )
( OPERATION 2 )
( T100 Additive Manufacturing )
( --- )
M510 (CAS OFF)
G00 G17 G21 G40 G80 G90

( --- sP.txt ---)
G0 Z=VPSLZ
G15 H1
M11
M27
( --- rotate_rotary_axes_additive.txt ---)
G611 HL=1
G90 G00 A0. C0.        (USER DEFINED)
X0. Y0.                (USER DEFINED)
C0
A0
G612
( --- )
()
G169 HL=1 X4.082 Y-52.5458 Z136. A0 C0 
( --- 5X_begin.txt --- )
G130 (TURN OFF SUPERNURBS)
G0 X4.082 Y-52.5458 Z136.0
G0 Z0.0503 A0 C0 

(LAYER COUNT: 49)
(BEGINNING LAYER: 1)
( -------------------- laser_off.txt --- )
/LPW=0               (LASER POWER)
(/)
( -------------------- )
(Laser Tech)
G0 X-0.1393 Y0.1444 Z0.0503 A0.494505 (TRAVEL)
G0 X-0.2786 Y0.2888 Z0.0503 A0.989011 (TRAVEL)
G0 X-0.4179 Y0.4332 Z0.0503 A1.48352 (TRAVEL)
G0 X-0.5572 Y0.5775 Z0.0503 A1.97802 (TRAVEL)
G0 X-0.6965 Y0.7219 Z0.0503 A2.47253 (TRAVEL)
G0 X-0.8358 Y0.8663 Z0.0503 A2.96703 (TRAVEL)
G0 X-0.9751 Y1.0107 Z0.0503 A3.46154 (TRAVEL)
G0 X-1.1144 Y1.1551 Z0.0503 A3.95604 (TRAVEL)
G0 X-1.2537 Y1.2995 Z0.0503 A4.45055 (TRAVEL)
G0 X-1.3930 Y1.4438 Z0.0503 A4.94506 (TRAVEL)
G0 X-1.5323 Y1.5882 Z0.0503 A5.43956 (TRAVEL)
G0 X-1.6716 Y1.7326 Z0.0503 A5.93407 (TRAVEL)
G0 X-1.8109 Y1.8770 Z0.0503 A6.42857 (TRAVEL)
G0 X-1.9502 Y2.0214 Z0.0503 A6.92308 (TRAVEL)
G0 X-2.0895 Y2.1658 Z0.0503 A7.41758 (TRAVEL)
G0 X-2.2287 Y2.3102 Z0.0503 A7.91209 (TRAVEL)
G0 X-2.3680 Y2.4545 Z0.0503 A8.40659 (TRAVEL)
G0 X-2.5073 Y2.5989 Z0.0503 A8.9011 (TRAVEL)
G0 X-2.6466 Y2.7433 Z0.0503 A9.3956 (TRAVEL)
G0 X-2.7859 Y2.8877 Z0.0503 A9.89011 (TRAVEL)
G0 X-2.9252 Y3.0321 Z0.0503 A10.3846 (TRAVEL)
G0 X-3.0645 Y3.1765 Z0.0503 A10.8791 (TRAVEL)
G0 X-3.2038 Y3.3208 Z0.0503 A11.3736 (TRAVEL)
G0 X-3.3431 Y3.4652 Z0.0503 A11.8681 (TRAVEL)
G0 X-3.4824 Y3.6096 Z0.0503 A12.3626 (TRAVEL)
G0 X-3.6217 Y3.7540 Z0.0503 A12.8571 (TRAVEL)
G0 X-3.7610 Y3.8984 Z0.0503 A13.3516 (TRAVEL)
G0 X-3.9003 Y4.0428 Z0.0503 A13.8462 (TRAVEL)
G0 X-4.0396 Y4.1872 Z0.0503 A14.3407 (TRAVEL)
G0 X-4.1789 Y4.3315 Z0.0503 A14.8352 (TRAVEL)
G0 X-4.3182 Y4.4759 Z0.0503 A15.3297 (TRAVEL)
G0 X-4.4575 Y4.6203 Z0.0503 A15.8242 (TRAVEL)
G0 X-4.5968 Y4.7647 Z0.0503 A16.3187 (TRAVEL)
G0 X-4.7361 Y4.9091 Z0.0503 A16.8132 (TRAVEL)
G0 X-4.8754 Y5.0535 Z0.0503 A17.3077 (TRAVEL)
G0 X-5.0147 Y5.1978 Z0.0503 A17.8022 (TRAVEL)
G0 X-5.1540 Y5.3422 Z0.0503 A18.2967 (TRAVEL)
G0 X-5.2933 Y5.4866 Z0.0503 A18.7912 (TRAVEL)
G0 X-5.4326 Y5.6310 Z0.0503 A19.2857 (TRAVEL)
G0 X-5.5719 Y5.7754 Z0.0503 A19.7802 (TRAVEL)
G0 X-5.7112 Y5.9198 Z0.0503 A20.2747 (TRAVEL)
G0 X-5.8505 Y6.0642 Z0.0503 A20.7692 (TRAVEL)
G0 X-5.9898 Y6.2085 Z0.0503 A21.2637 (TRAVEL)
G0 X-6.1291 Y6.3529 Z0.0503 A21.7582 (TRAVEL)
G0 X-6.2684 Y6.4973 Z0.0503 A22.2527 (TRAVEL)
G0 X-6.4076 Y6.6417 Z0.0503 A22.7473 (TRAVEL)
G0 X-6.5469 Y6.7861 Z0.0503 A23.2418 (TRAVEL)
G0 X-6.6862 Y6.9305 Z0.0503 A23.7363 (TRAVEL)
G0 X-6.8255 Y7.0748 Z0.0503 A24.2308 (TRAVEL)
G0 X-6.9648 Y7.2192 Z0.0503 A24.7253 (TRAVEL)
G0 X-7.1041 Y7.3636 Z0.0503 A25.2198 (TRAVEL)
G0 X-7.2434 Y7.5080 Z0.0503 A25.7143 (TRAVEL)
G0 X-7.3827 Y7.6524 Z0.0503 A26.2088 (TRAVEL)
G0 X-7.5220 Y7.7968 Z0.0503 A26.7033 (TRAVEL)
G0 X-7.6613 Y7.9412 Z0.0503 A27.1978 (TRAVEL)
G0 X-7.8006 Y8.0855 Z0.0503 A27.6923 (TRAVEL)
G0 X-7.9399 Y8.2299 Z0.0503 A28.1868 (TRAVEL)
G0 X-8.0792 Y8.3743 Z0.0503 A28.6813 (TRAVEL)
G0 X-8.2185 Y8.5187 Z0.0503 A29.1758 (TRAVEL)
G0 X-8.3578 Y8.6631 Z0.0503 A29.6703 (TRAVEL)
G0 X-8.4971 Y8.8075 Z0.0503 A30.1648 (TRAVEL)
G0 X-8.6364 Y8.9518 Z0.0503 A30.6593 (TRAVEL)
G0 X-8.7757 Y9.0962 Z0.0503 A31.1538 (TRAVEL)
G0 X-8.9150 Y9.2406 Z0.0503 A31.6484 (TRAVEL)
G0 X-9.0543 Y9.3850 Z0.0503 A32.1429 (TRAVEL)
G0 X-9.1936 Y9.5294 Z0.0503 A32.6374 (TRAVEL)
G0 X-9.3329 Y9.6738 Z0.0503 A33.1319 (TRAVEL)
G0 X-9.4722 Y9.8182 Z0.0503 A33.6264 (TRAVEL)
G0 X-9.6115 Y9.9625 Z0.0503 A34.1209 (TRAVEL)
G0 X-9.7508 Y10.1069 Z0.0503 A34.6154 (TRAVEL)
G0 X-9.8901 Y10.2513 Z0.0503 A35.1099 (TRAVEL)
G0 X-10.0294 Y10.3957 Z0.0503 A35.6044 (TRAVEL)
G0 X-10.1687 Y10.5401 Z0.0503 A36.0989 (TRAVEL)
G0 X-10.3080 Y10.6845 Z0.0503 A36.5934 (TRAVEL)
G0 X-10.4473 Y10.8288 Z0.0503 A37.0879 (TRAVEL)
G0 X-10.5865 Y10.9732 Z0.0503 A37.5824 (TRAVEL)
G0 X-10.7258 Y11.1176 Z0.0503 A38.0769 (TRAVEL)
G0 X-10.8651 Y11.2620 Z0.0503 A38.5714 (TRAVEL)
G0 X-11.0044 Y11.4064 Z0.0503 A39.0659 (TRAVEL)
G0 X-11.1437 Y11.5508 Z0.0503 A39.5604 (TRAVEL)
G0 X-11.2830 Y11.6952 Z0.0503 A40.0549 (TRAVEL)
G0 X-11.4223 Y11.8395 Z0.0503 A40.5494 (TRAVEL)
G0 X-11.5616 Y11.9839 Z0.0503 A41.044 (TRAVEL)
G0 X-11.7009 Y12.1283 Z0.0503 A41.5385 (TRAVEL)
G0 X-11.8402 Y12.2727 Z0.0503 A42.033 (TRAVEL)
G0 X-11.9795 Y12.4171 Z0.0503 A42.5275 (TRAVEL)
G0 X-12.1188 Y12.5615 Z0.0503 A43.022 (TRAVEL)
G0 X-12.2581 Y12.7058 Z0.0503 A43.5165 (TRAVEL)
G0 X-12.3974 Y12.8502 Z0.0503 A44.011 (TRAVEL)
G0 X-12.5367 Y12.9946 Z0.0503 A44.5055 (TRAVEL)
G0 X-12.6760 Y13.1390 Z0.0503 A45 C43.9725 (TRAVEL)
( -------------------- laser_on.txt --- )
/LPW=LPWW        (LASER POWER)
( -------------------- )
G1 X-12.1001 Y13.1390 Z0.0503 C41.9743 F450 (INNER PERIMETER)
G1 X-11.5241 Y13.1390 C39.9761 F450 (INNER PERIMETER)
G1 X-10.9482 Y13.1390 C37.978 F450 (INNER PERIMETER)
G1 X-10.3723 Y13.1390 C35.9798 F450 (INNER PERIMETER)
G1 X-9.7963 Y13.1390 C33.9816 F450 (INNER PERIMETER)
G1 X-9.2204 Y13.1390 C31.9834 F450 (INNER PERIMETER)
G1 X-8.6445 Y13.1390 C29.9852 F450 (INNER PERIMETER)
G1 X-8.0686 Y13.1390 C27.987 F450 (INNER PERIMETER)
G1 X-7.4926 Y13.1390 C25.9888 F450 (INNER PERIMETER)
G1 X-6.9167 Y13.1390 C23.9907 F450 (INNER PERIMETER)
G1 X-6.3407 Y13.1390 C21.9925 F450 (INNER PERIMETER)
G1 X-5.7648 Y13.1390 C19.9943 F450 (INNER PERIMETER)
G1 X-5.1889 Y13.1390 C17.9961 F450 (INNER PERIMETER)
G1 X-4.6129 Y13.1390 C15.9979 F450 (INNER PERIMETER)
G1 X-4.0370 Y13.1390 C13.9997 F450 (INNER PERIMETER)
G1 X-3.4611 Y13.1390 C12.0015 F450 (INNER PERIMETER)
G1 X-2.8852 Y13.1390 C10.0034 F450 (INNER PERIMETER)
G1 X-2.3092 Y13.1390 C8.00517 F450 (INNER PERIMETER)
G1 X-1.7333 Y13.1390 C6.00699 F450 (INNER PERIMETER)
G1 X-1.1574 Y13.1390 C4.0088 F450 (INNER PERIMETER)
G1 X-0.5814 Y13.1390 C2.01061 F450 (INNER PERIMETER)
G1 X-0.0055 Y13.1390 C0.0124288 F450 (INNER PERIMETER)
G1 X0.5704 Y13.1390 C-1.98576 F450 (INNER PERIMETER)
G1 X1.1464 Y13.1390 C-3.98394 F450 (INNER PERIMETER)
G1 X1.7223 Y13.1390 C-5.98213 F450 (INNER PERIMETER)
G1 X2.2982 Y13.1390 C-7.98031 F450 (INNER PERIMETER)
G1 X2.8742 Y13.1390 C-9.9785 F450 (INNER PERIMETER)
G1 X3.4501 Y13.1390 C-11.9767 F450 (INNER PERIMETER)
G1 X4.0260 Y13.1390 C-13.9749 F450 (INNER PERIMETER)
G1 X4.6020 Y13.1390 C-15.9731 F450 (INNER PERIMETER)
G1 X5.1779 Y13.1390 C-17.9712 F450 (INNER PERIMETER)
G1 X5.7538 Y13.1390 C-19.9694 F450 (INNER PERIMETER)
G1 X6.3297 Y13.1390 C-21.9676 F450 (INNER PERIMETER)
G1 X6.9057 Y13.1390 C-23.9658 F450 (INNER PERIMETER)
G1 X7.4816 Y13.1390 C-25.964 F450 (INNER PERIMETER)
G1 X8.0576 Y13.1390 C-27.9622 F450 (INNER PERIMETER)
G1 X8.6335 Y13.1390 C-29.9604 F450 (INNER PERIMETER)
G1 X9.2094 Y13.1390 C-31.9585 F450 (INNER PERIMETER)
G1 X9.7853 Y13.1390 C-33.9567 F450 (INNER PERIMETER)
G1 X10.3613 Y13.1390 C-35.9549 F450 (INNER PERIMETER)
G1 X10.9372 Y13.1390 C-37.9531 F450 (INNER PERIMETER)
G1 X11.5131 Y13.1390 C-39.9513 F450 (INNER PERIMETER)
G1 X12.0891 Y13.1390 C-41.9495 F450 (INNER PERIMETER)
G1 X12.6650 Y13.1390 C-43.9477 F450 (INNER PERIMETER)
G1 X12.6650 Y12.5808 C-45.9053 F450 (INNER PERIMETER)
G1 X12.6650 Y12.0226 C-47.863 F450 (INNER PERIMETER)
G1 X12.6650 Y11.4644 C-49.8207 F450 (INNER PERIMETER)
G1 X12.6650 Y10.9062 C-51.7784 F450 (INNER PERIMETER)
G1 X12.6650 Y10.3480 C-53.736 F450 (INNER PERIMETER)
G1 X12.6650 Y9.7898 C-55.6937 F450 (INNER PERIMETER)
G1 X12.6650 Y9.2317 C-57.6514 F450 (INNER PERIMETER)
G1 X12.6650 Y8.6735 C-59.6091 F450 (INNER PERIMETER)
G1 X12.6650 Y8.1153 C-61.5668 F450 (INNER PERIMETER)
G1 X12.6650 Y7.5571 C-63.5244 F450 (INNER PERIMETER)
G1 X12.6650 Y6.9989 C-65.4821 F450 (INNER PERIMETER)
G1 X12.6650 Y6.4407 C-67.4398 F450 (INNER PERIMETER)
G1 X12.6650 Y5.8825 C-69.3975 F450 (INNER PERIMETER)
G1 X12.6650 Y5.3243 C-71.3552 F450 (INNER PERIMETER)
G1 X12.6650 Y4.7661 C-73.3128 F450 (INNER PERIMETER)
G1 X12.6650 Y4.2079 C-75.2705 F450 (INNER PERIMETER)
G1 X12.6650 Y3.6497 C-77.2282 F450 (INNER PERIMETER)
G1 X12.6650 Y3.0915 C-79.1859 F450 (INNER PERIMETER)
G1 X12.6650 Y2.5334 C-81.1435 F450 (INNER PERIMETER)
G1 X12.6650 Y1.9752 C-83.1012 F450 (INNER PERIMETER)
G1 X12.6650 Y1.4170 C-85.0589 F450 (INNER PERIMETER)
G1 X12.6650 Y0.8588 C-87.0166 F450 (INNER PERIMETER)
G1 X12.6650 Y0.3006 C-88.9743 F450 (INNER PERIMETER)
G1 X12.6650 Y-0.2576 C-90.9319 F450 (INNER PERIMETER)
G1 X12.6650 Y-0.8158 C-92.8896 F450 (INNER PERIMETER)
G1 X12.6650 Y-1.3740 C-94.8473 F450 (INNER PERIMETER)
G1 X12.6650 Y-1.9322 C-96.805 F450 (INNER PERIMETER)
G1 X12.6650 Y-2.4904 C-98.7627 F450 (INNER PERIMETER)
G1 X12.6650 Y-3.0486 C-100.72 F450 (INNER PERIMETER)
G1 X12.6650 Y-3.6067 C-102.678 F450 (INNER PERIMETER)
G1 X12.6650 Y-4.1649 C-104.636 F450 (INNER PERIMETER)
G1 X12.6650 Y-4.7231 C-106.593 F450 (INNER PERIMETER)
G1 X12.6650 Y-5.2813 C-108.551 F450 (INNER PERIMETER)
G1 X12.6650 Y-5.8395 C-110.509 F450 (INNER PERIMETER)
G1 X12.6650 Y-6.3977 C-112.466 F450 (INNER PERIMETER)
G1 X12.6650 Y-6.9559 C-114.424 F450 (INNER PERIMETER)
G1 X12.6650 Y-7.5141 C-116.382 F450 (INNER PERIMETER)
G1 X12.6650 Y-8.0723 C-118.339 F450 (INNER PERIMETER)
G1 X12.6650 Y-8.6305 C-120.297 F450 (INNER PERIMETER)
G1 X12.6650 Y-9.1887 C-122.255 F450 (INNER PERIMETER)
G1 X12.6650 Y-9.7469 C-124.212 F450 (INNER PERIMETER)
G1 X12.6650 Y-10.3050 C-126.17 F450 (INNER PERIMETER)
G1 X12.6650 Y-10.8632 C-128.128 F450 (INNER PERIMETER)
G1 X12.6650 Y-11.4214 C-130.086 F450 (INNER PERIMETER)
G1 X12.6650 Y-11.9796 C-132.043 F450 (INNER PERIMETER)
G1 X12.6650 Y-12.5378 C-134.001 F450 (INNER PERIMETER)
G1 X12.6650 Y-13.0960 C-135.959 F450 (INNER PERIMETER)
G1 X12.1019 Y-13.0960 C-137.917 F450 (INNER PERIMETER)
G1 X11.5387 Y-13.0960 C-139.874 F450 (INNER PERIMETER)
G1 X10.9756 Y-13.0960 C-141.832 F450 (INNER PERIMETER)
G1 X10.4125 Y-13.0960 C-143.79 F450 (INNER PERIMETER)
G1 X9.8493 Y-13.0960 C-145.748 F450 (INNER PERIMETER)
G1 X9.2862 Y-13.0960 C-147.706 F450 (INNER PERIMETER)
G1 X8.7231 Y-13.0960 C-149.664 F450 (INNER PERIMETER)
G1 X8.1599 Y-13.0960 C-151.622 F450 (INNER PERIMETER)
G1 X7.5968 Y-13.0960 C-153.58 F450 (INNER PERIMETER)
G1 X7.0337 Y-13.0960 C-155.538 F450 (INNER PERIMETER)
G1 X6.4705 Y-13.0960 C-157.496 F450 (INNER PERIMETER)
G1 X5.9074 Y-13.0960 C-159.454 F450 (INNER PERIMETER)
G1 X5.3443 Y-13.0960 C-161.412 F450 (INNER PERIMETER)
G1 X4.7811 Y-13.0960 C-163.37 F450 (INNER PERIMETER)
G1 X4.2180 Y-13.0960 C-165.328 F450 (INNER PERIMETER)
G1 X3.6549 Y-13.0960 C-167.286 F450 (INNER PERIMETER)
G1 X3.0917 Y-13.0960 C-169.244 F450 (INNER PERIMETER)
G1 X2.5286 Y-13.0960 C-171.202 F450 (INNER PERIMETER)
G1 X1.9655 Y-13.0960 C-173.16 F450 (INNER PERIMETER)
G1 X1.4023 Y-13.0960 C-175.118 F450 (INNER PERIMETER)
G1 X0.8392 Y-13.0960 C-177.076 F450 (INNER PERIMETER)
G1 X0.2761 Y-13.0960 C-179.034 F450 (INNER PERIMETER)
G1 X-0.2871 Y-13.0960 C-180.991 F450 (INNER PERIMETER)
G1 X-0.8502 Y-13.0960 C-182.949 F450 (INNER PERIMETER)
G1 X-1.4133 Y-13.0960 C-184.907 F450 (INNER PERIMETER)
G1 X-1.9765 Y-13.0960 C-186.865 F450 (INNER PERIMETER)
G1 X-2.5396 Y-13.0960 C-188.823 F450 (INNER PERIMETER)
G1 X-3.1027 Y-13.0960 C-190.781 F450 (INNER PERIMETER)
G1 X-3.6659 Y-13.0960 C-192.739 F450 (INNER PERIMETER)
G1 X-4.2290 Y-13.0960 C-194.697 F450 (INNER PERIMETER)
G1 X-4.7921 Y-13.0960 C-196.655 F450 (INNER PERIMETER)
G1 X-5.3553 Y-13.0960 C-198.613 F450 (INNER PERIMETER)
G1 X-5.9184 Y-13.0960 C-200.571 F450 (INNER PERIMETER)
G1 X-6.4815 Y-13.0960 C-202.529 F450 (INNER PERIMETER)
G1 X-7.0447 Y-13.0960 C-204.487 F450 (INNER PERIMETER)
G1 X-7.6078 Y-13.0960 C-206.445 F450 (INNER PERIMETER)
G1 X-8.1709 Y-13.0960 C-208.403 F450 (INNER PERIMETER)
G1 X-8.7341 Y-13.0960 C-210.361 F450 (INNER PERIMETER)
G1 X-9.2972 Y-13.0960 C-212.319 F450 (INNER PERIMETER)
G1 X-9.8603 Y-13.0960 C-214.277 F450 (INNER PERIMETER)
G1 X-10.4235 Y-13.0960 C-216.235 F450 (INNER PERIMETER)
G1 X-10.9866 Y-13.0960 C-218.193 F450 (INNER PERIMETER)
G1 X-11.5497 Y-13.0960 C-220.151 F450 (INNER PERIMETER)
G1 X-12.1129 Y-13.0960 C-222.108 F450 (INNER PERIMETER)
G1 X-12.6760 Y-13.0960 C-224.066 F450 (INNER PERIMETER)
G1 X-12.6760 Y-12.5257 C-226.066 F450 (INNER PERIMETER)
G1 X-12.6760 Y-11.9553 C-228.065 F450 (INNER PERIMETER)
G1 X-12.6760 Y-11.3850 C-230.064 F450 (INNER PERIMETER)
G1 X-12.6760 Y-10.8147 C-232.063 F450 (INNER PERIMETER)
G1 X-12.6760 Y-10.2444 C-234.062 F450 (INNER PERIMETER)
G1 X-12.6760 Y-9.6740 C-236.061 F450 (INNER PERIMETER)
G1 X-12.6760 Y-9.1037 C-238.061 F450 (INNER PERIMETER)
G1 X-12.6760 Y-8.5334 C-240.06 F450 (INNER PERIMETER)
G1 X-12.6760 Y-7.9631 C-242.059 F450 (INNER PERIMETER)
G1 X-12.6760 Y-7.3927 C-244.058 F450 (INNER PERIMETER)
G1 X-12.6760 Y-6.8224 C-246.057 F450 (INNER PERIMETER)
G1 X-12.6760 Y-6.2521 C-248.056 F450 (INNER PERIMETER)
G1 X-12.6760 Y-5.6818 C-250.055 F450 (INNER PERIMETER)
G1 X-12.6760 Y-5.1114 C-252.055 F450 (INNER PERIMETER)
G1 X-12.6760 Y-4.5411 C-254.054 F450 (INNER PERIMETER)
G1 X-12.6760 Y-3.9708 C-256.053 F450 (INNER PERIMETER)
G1 X-12.6760 Y-3.4005 C-258.052 F450 (INNER PERIMETER)
G1 X-12.6760 Y-2.8301 C-260.051 F450 (INNER PERIMETER)
G1 X-12.6760 Y-2.2598 C-262.05 F450 (INNER PERIMETER)
G1 X-12.6760 Y-1.6895 C-264.05 F450 (INNER PERIMETER)
G1 X-12.6760 Y-1.1192 C-266.049 F450 (INNER PERIMETER)
G1 X-12.6760 Y-0.5488 C-268.048 F450 (INNER PERIMETER)
G1 X-12.6760 Y0.0215 C-270.047 F450 (INNER PERIMETER)
G1 X-12.6760 Y0.5918 C-272.046 F450 (INNER PERIMETER)
G1 X-12.6760 Y1.1622 C-274.045 F450 (INNER PERIMETER)
G1 X-12.6760 Y1.7325 C-276.044 F450 (INNER PERIMETER)
G1 X-12.6760 Y2.3028 C-278.044 F450 (INNER PERIMETER)
G1 X-12.6760 Y2.8731 C-280.043 F450 (INNER PERIMETER)
G1 X-12.6760 Y3.4435 C-282.042 F450 (INNER PERIMETER)
G1 X-12.6760 Y4.0138 C-284.041 F450 (INNER PERIMETER)
G1 X-12.6760 Y4.5841 C-286.04 F450 (INNER PERIMETER)
G1 X-12.6760 Y5.1544 C-288.039 F450 (INNER PERIMETER)
G1 X-12.6760 Y5.7248 C-290.039 F450 (INNER PERIMETER)
G1 X-12.6760 Y6.2951 C-292.038 F450 (INNER PERIMETER)
G1 X-12.6760 Y6.8654 C-294.037 F450 (INNER PERIMETER)
G1 X-12.6760 Y7.4357 C-296.036 F450 (INNER PERIMETER)
G1 X-12.6760 Y8.0061 C-298.035 F450 (INNER PERIMETER)
G1 X-12.6760 Y8.5764 C-300.034 F450 (INNER PERIMETER)
G1 X-12.6760 Y9.1467 C-302.034 F450 (INNER PERIMETER)
G1 X-12.6760 Y9.7170 C-304.033 F450 (INNER PERIMETER)
G1 X-12.6760 Y10.2874 C-306.032 F450 (INNER PERIMETER)
G1 X-12.6760 Y10.8577 C-308.031 F450 (INNER PERIMETER)
G1 X-12.6760 Y11.4280 C-310.03 F450 (INNER PERIMETER)
G1 X-12.6760 Y11.9983 C-312.029 F450 (INNER PERIMETER)
G1 X-12.6760 Y12.5687 C-314.028 F450 (INNER PERIMETER)
G1 X-12.6760 Y13.1390 C-316.028 F450 (INNER PERIMETER)
( -------------------- laser_off.txt --- )
/LPW=0               (LASER POWER)
(/)
( -------------------- )
(Laser Tech)
G0 X-12.7575 Y13.2081 Z0.0503 A44.5055 (TRAVEL)
G0 X-12.8390 Y13.2771 Z0.0503 A44.011 (TRAVEL)
G0 X-12.9204 Y13.3462 Z0.0503 A43.5165 (TRAVEL)
G0 X-13.0019 Y13.4153 Z0.0503 A43.022 (TRAVEL)
G0 X-13.0834 Y13.4843 Z0.0503 A42.5275 (TRAVEL)
G0 X-13.1649 Y13.5534 Z0.0503 A42.033 (TRAVEL)
G0 X-13.2464 Y13.6225 Z0.0503 A41.5385 (TRAVEL)
G0 X-13.3279 Y13.6915 Z0.0503 A41.044 (TRAVEL)
G0 X-13.4094 Y13.7606 Z0.0503 A40.5494 (TRAVEL)
G0 X-13.4908 Y13.8297 Z0.0503 A40.0549 (TRAVEL)
G0 X-13.5723 Y13.8987 Z0.0503 A39.5604 (TRAVEL)
G0 X-13.6538 Y13.9678 Z0.0503 A39.0659 (TRAVEL)
G0 X-13.7353 Y14.0369 Z0.0503 A38.5714 (TRAVEL)
G0 X-13.8168 Y14.1059 Z0.0503 A38.0769 (TRAVEL)
G0 X-13.8983 Y14.1750 Z0.0503 A37.5824 (TRAVEL)
G0 X-13.9797 Y14.2441 Z0.0503 A37.0879 (TRAVEL)
G0 X-14.0612 Y14.3131 Z0.0503 A36.5934 (TRAVEL)
G0 X-14.1427 Y14.3822 Z0.0503 A36.0989 (TRAVEL)
G0 X-14.2242 Y14.4513 Z0.0503 A35.6044 (TRAVEL)
G0 X-14.3057 Y14.5203 Z0.0503 A35.1099 (TRAVEL)
G0 X-14.3872 Y14.5894 Z0.0503 A34.6154 (TRAVEL)
G0 X-14.4686 Y14.6584 Z0.0503 A34.1209 (TRAVEL)
G0 X-14.5501 Y14.7275 Z0.0503 A33.6264 (TRAVEL)
G0 X-14.6316 Y14.7966 Z0.0503 A33.1319 (TRAVEL)
G0 X-14.7131 Y14.8656 Z0.0503 A32.6374 (TRAVEL)
G0 X-14.7946 Y14.9347 Z0.0503 A32.1429 (TRAVEL)
G0 X-14.8761 Y15.0038 Z0.0503 A31.6484 (TRAVEL)
G0 X-14.9575 Y15.0728 Z0.0503 A31.1538 (TRAVEL)
G0 X-15.0390 Y15.1419 Z0.0503 A30.6593 (TRAVEL)
G0 X-15.1205 Y15.2110 Z0.0503 A30.1648 (TRAVEL)
G0 X-15.2020 Y15.2800 Z0.0503 A29.6703 (TRAVEL)
G0 X-15.2835 Y15.3491 Z0.0503 A29.1758 (TRAVEL)
G0 X-15.3650 Y15.4182 Z0.0503 A28.6813 (TRAVEL)
G0 X-15.4464 Y15.4872 Z0.0503 A28.1868 (TRAVEL)
G0 X-15.5279 Y15.5563 Z0.0503 A27.6923 (TRAVEL)
G0 X-15.6094 Y15.6254 Z0.0503 A27.1978 (TRAVEL)
G0 X-15.6909 Y15.6944 Z0.0503 A26.7033 (TRAVEL)
G0 X-15.7724 Y15.7635 Z0.0503 A26.2088 (TRAVEL)
G0 X-15.8539 Y15.8326 Z0.0503 A25.7143 (TRAVEL)
G0 X-15.9353 Y15.9016 Z0.0503 A25.2198 (TRAVEL)
G0 X-16.0168 Y15.9707 Z0.0503 A24.7253 (TRAVEL)
G0 X-16.0983 Y16.0398 Z0.0503 A24.2308 (TRAVEL)
G0 X-16.1798 Y16.1088 Z0.0503 A23.7363 (TRAVEL)
G0 X-16.2613 Y16.1779 Z0.0503 A23.2418 (TRAVEL)
G0 X-16.3428 Y16.2470 Z0.0503 A22.7473 (TRAVEL)
G0 X-16.4242 Y16.3160 Z0.0503 A22.2527 (TRAVEL)
G0 X-16.5057 Y16.3851 Z0.0503 A21.7582 (TRAVEL)
G0 X-16.5872 Y16.4542 Z0.0503 A21.2637 (TRAVEL)
G0 X-16.6687 Y16.5232 Z0.0503 A20.7692 (TRAVEL)
G0 X-16.7502 Y16.5923 Z0.0503 A20.2747 (TRAVEL)
G0 X-16.8317 Y16.6614 Z0.0503 A19.7802 (TRAVEL)
G0 X-16.9131 Y16.7304 Z0.0503 A19.2857 (TRAVEL)
G0 X-16.9946 Y16.7995 Z0.0503 A18.7912 (TRAVEL)
G0 X-17.0761 Y16.8686 Z0.0503 A18.2967 (TRAVEL)
G0 X-17.1576 Y16.9376 Z0.0503 A17.8022 (TRAVEL)
G0 X-17.2391 Y17.0067 Z0.0503 A17.3077 (TRAVEL)
G0 X-17.3206 Y17.0758 Z0.0503 A16.8132 (TRAVEL)
G0 X-17.4020 Y17.1448 Z0.0503 A16.3187 (TRAVEL)
G0 X-17.4835 Y17.2139 Z0.0503 A15.8242 (TRAVEL)
G0 X-17.5650 Y17.2830 Z0.0503 A15.3297 (TRAVEL)
G0 X-17.6465 Y17.3520 Z0.0503 A14.8352 (TRAVEL)
G0 X-17.7280 Y17.4211 Z0.0503 A14.3407 (TRAVEL)
G0 X-17.8095 Y17.4902 Z0.0503 A13.8462 (TRAVEL)
G0 X-17.8909 Y17.5592 Z0.0503 A13.3516 (TRAVEL)
G0 X-17.9724 Y17.6283 Z0.0503 A12.8571 (TRAVEL)
G0 X-18.0539 Y17.6974 Z0.0503 A12.3626 (TRAVEL)
G0 X-18.1354 Y17.7664 Z0.0503 A11.8681 (TRAVEL)
G0 X-18.2169 Y17.8355 Z0.0503 A11.3736 (TRAVEL)
G0 X-18.2984 Y17.9045 Z0.0503 A10.8791 (TRAVEL)
G0 X-18.3798 Y17.9736 Z0.0503 A10.3846 (TRAVEL)
G0 X-18.4613 Y18.0427 Z0.0503 A9.89011 (TRAVEL)
G0 X-18.5428 Y18.1117 Z0.0503 A9.3956 (TRAVEL)
G0 X-18.6243 Y18.1808 Z0.0503 A8.9011 (TRAVEL)
G0 X-18.7058 Y18.2499 Z0.0503 A8.40659 (TRAVEL)
G0 X-18.7873 Y18.3189 Z0.0503 A7.91209 (TRAVEL)
G0 X-18.8687 Y18.3880 Z0.0503 A7.41758 (TRAVEL)
G0 X-18.9502 Y18.4571 Z0.0503 A6.92308 (TRAVEL)
G0 X-19.0317 Y18.5261 Z0.0503 A6.42857 (TRAVEL)
G0 X-19.1132 Y18.5952 Z0.0503 A5.93407 (TRAVEL)
G0 X-19.1947 Y18.6643 Z0.0503 A5.43956 (TRAVEL)
G0 X-19.2762 Y18.7333 Z0.0503 A4.94505 (TRAVEL)
G0 X-19.3576 Y18.8024 Z0.0503 A4.45055 (TRAVEL)
G0 X-19.4391 Y18.8715 Z0.0503 A3.95604 (TRAVEL)
G0 X-19.5206 Y18.9405 Z0.0503 A3.46154 (TRAVEL)
G0 X-19.6021 Y19.0096 Z0.0503 A2.96703 (TRAVEL)
G0 X-19.6836 Y19.0787 Z0.0503 A2.47253 (TRAVEL)
G0 X-19.7651 Y19.1477 Z0.0503 A1.97802 (TRAVEL)
G0 X-19.8465 Y19.2168 Z0.0503 A1.48352 (TRAVEL)
G0 X-19.9280 Y19.2859 Z0.0503 A0.98901 (TRAVEL)
G0 X-20.0095 Y19.3549 Z0.0503 A0.494507 (TRAVEL)
G0 X-20.0910 Y19.4240 Z0.0503 A0 (TRAVEL)
( -------------------- laser_on.txt --- )
/LPW=LPWW        (LASER POWER)
( -------------------- )
G1 X-20.9210 Y18.5260 Z0.0503 F450 (OUTER PERIMETER)
G1 X-20.9430 Y18.5010 F450 (OUTER PERIMETER)
G1 X-21.7320 Y17.5670 F450 (OUTER PERIMETER)
G1 X-22.4990 Y16.5720 F450 (OUTER PERIMETER)
G1 X-23.1990 Y15.5760 F450 (OUTER PERIMETER)
G1 X-23.2080 Y15.5620 F450 (OUTER PERIMETER)
G1 X-23.8710 Y14.5230 F450 (OUTER PERIMETER)
G1 X-23.8850 Y14.4990 F450 (OUTER PERIMETER)
G1 X-24.5000 Y13.4340 F450 (OUTER PERIMETER)
G1 X-25.0710 Y12.3340 F450 (OUTER PERIMETER)
G1 X-25.5870 Y11.2230 F450 (OUTER PERIMETER)
G1 X-25.5960 Y11.2010 F450 (OUTER PERIMETER)
G1 X-26.0640 Y10.0630 F450 (OUTER PERIMETER)
G1 X-26.0760 Y10.0310 F450 (OUTER PERIMETER)
G1 X-26.4830 Y8.9000 F450 (OUTER PERIMETER)
G1 X-26.8500 Y7.7190 F450 (OUTER PERIMETER)
G1 X-26.8590 Y7.6820 F450 (OUTER PERIMETER)
G1 X-26.8600 Y7.6780 F450 (OUTER PERIMETER)
G1 X-27.1710 Y6.4920 F450 (OUTER PERIMETER)
G1 X-27.4310 Y5.2840 F450 (OUTER PERIMETER)
G1 X-27.4380 Y5.2480 F450 (OUTER PERIMETER)
G1 X-27.6390 Y4.0530 F450 (OUTER PERIMETER)
G1 X-27.7920 Y2.8070 F450 (OUTER PERIMETER)
G1 X-27.8890 Y1.5690 F450 (OUTER PERIMETER)
G1 X-27.8900 Y1.5440 F450 (OUTER PERIMETER)
G1 X-27.9300 Y0.3410 F450 (OUTER PERIMETER)
G1 X-27.9300 Y0.3160 F450 (OUTER PERIMETER)
G1 X-27.9160 Y-0.9080 F450 (OUTER PERIMETER)
G1 X-27.8470 Y-2.1550 F450 (OUTER PERIMETER)
G1 X-27.7210 Y-3.4040 F450 (OUTER PERIMETER)
G1 X-27.5440 Y-4.6130 F450 (OUTER PERIMETER)
G1 X-27.3070 Y-5.8550 F450 (OUTER PERIMETER)
G1 X-27.0230 Y-7.0450 F450 (OUTER PERIMETER)
G1 X-26.6770 Y-8.2560 F450 (OUTER PERIMETER)
G1 X-26.2810 Y-9.4370 F450 (OUTER PERIMETER)
G1 X-25.8310 Y-10.6040 F450 (OUTER PERIMETER)
G1 X-25.3420 Y-11.7210 F450 (OUTER PERIMETER)
G1 X-25.3410 Y-11.7230 F450 (OUTER PERIMETER)
G1 X-24.7850 Y-12.8580 F450 (OUTER PERIMETER)
G1 X-24.7840 Y-12.8580 F450 (OUTER PERIMETER)
G1 X-24.1930 Y-13.9360 F450 (OUTER PERIMETER)
G1 X-23.5450 Y-15.0030 F450 (OUTER PERIMETER)
G1 X-22.8420 Y-16.0510 F450 (OUTER PERIMETER)
G1 X-22.1200 Y-17.0310 F450 (OUTER PERIMETER)
G1 X-21.3420 Y-17.9950 F450 (OUTER PERIMETER)
G1 X-20.5010 Y-18.9470 F450 (OUTER PERIMETER)
G1 X-20.4970 Y-18.9510 F450 (OUTER PERIMETER)
G1 X-19.6520 Y-19.8240 F450 (OUTER PERIMETER)
G1 X-19.6440 Y-19.8320 F450 (OUTER PERIMETER)
G1 X-18.7410 Y-20.6870 F450 (OUTER PERIMETER)
G1 X-18.7280 Y-20.6980 F450 (OUTER PERIMETER)
G1 X-17.8070 Y-21.4950 F450 (OUTER PERIMETER)
G1 X-17.7970 Y-21.5030 F450 (OUTER PERIMETER)
G1 X-16.8170 Y-22.2770 F450 (OUTER PERIMETER)
G1 X-15.7890 Y-23.0170 F450 (OUTER PERIMETER)
G1 X-14.7670 Y-23.6840 F450 (OUTER PERIMETER)
G1 X-13.7140 Y-24.3080 F450 (OUTER PERIMETER)
G1 X-12.5730 Y-24.9170 F450 (OUTER PERIMETER)
G1 X-11.5020 Y-25.4280 F450 (OUTER PERIMETER)
G1 X-11.4960 Y-25.4310 F450 (OUTER PERIMETER)
G1 X-11.4670 Y-25.4440 F450 (OUTER PERIMETER)
G1 X-10.3390 Y-25.9220 F450 (OUTER PERIMETER)
G1 X-9.1490 Y-26.3660 F450 (OUTER PERIMETER)
G1 X-8.0010 Y-26.7360 F450 (OUTER PERIMETER)
G1 X-7.9840 Y-26.7400 F450 (OUTER PERIMETER)
G1 X-6.7790 Y-27.0700 F450 (OUTER PERIMETER)
G1 X-6.7750 Y-27.0710 F450 (OUTER PERIMETER)
G1 X-5.5630 Y-27.3460 F450 (OUTER PERIMETER)
G1 X-4.3550 Y-27.5640 F450 (OUTER PERIMETER)
G1 X-3.1160 Y-27.7310 F450 (OUTER PERIMETER)
G1 X-3.0940 Y-27.7330 F450 (OUTER PERIMETER)
G1 X-1.8650 Y-27.8430 F450 (OUTER PERIMETER)
G1 X-0.6240 Y-27.8980 F450 (OUTER PERIMETER)
G1 X0.6180 Y-27.8980 F450 (OUTER PERIMETER)
G1 X1.8500 Y-27.8430 F450 (OUTER PERIMETER)
G1 X1.8590 Y-27.8420 F450 (OUTER PERIMETER)
G1 X3.1220 Y-27.7290 F450 (OUTER PERIMETER)
G1 X4.3250 Y-27.5670 F450 (OUTER PERIMETER)
G1 X4.3400 Y-27.5640 F450 (OUTER PERIMETER)
G1 X5.5570 Y-27.3450 F450 (OUTER PERIMETER)
G1 X5.5640 Y-27.3440 F450 (OUTER PERIMETER)
G1 X5.5640 Y-27.3430 F450 (OUTER PERIMETER)
G1 X6.7890 Y-27.0650 F450 (OUTER PERIMETER)
G1 X7.9690 Y-26.7420 F450 (OUTER PERIMETER)
G1 X7.9780 Y-26.7390 F450 (OUTER PERIMETER)
G1 X9.1630 Y-26.3560 F450 (OUTER PERIMETER)
G1 X10.3160 Y-25.9270 F450 (OUTER PERIMETER)
G1 X10.3360 Y-25.9190 F450 (OUTER PERIMETER)
G1 X11.4570 Y-25.4440 F450 (OUTER PERIMETER)
G1 X11.4670 Y-25.4390 F450 (OUTER PERIMETER)
G1 X12.5860 Y-24.9050 F450 (OUTER PERIMETER)
G1 X12.6100 Y-24.8920 F450 (OUTER PERIMETER)
G1 X12.6100 Y-24.8930 F450 (OUTER PERIMETER)
G1 X13.7000 Y-24.3100 F450 (OUTER PERIMETER)
G1 X14.7510 Y-23.6880 F450 (OUTER PERIMETER)
G1 X14.7650 Y-23.6790 F450 (OUTER PERIMETER)
G1 X14.7710 Y-23.6750 F450 (OUTER PERIMETER)
G1 X15.7940 Y-23.0050 F450 (OUTER PERIMETER)
G1 X16.2600 Y-22.6630 F450 (OUTER PERIMETER)
G1 X16.2700 Y-22.6630 F450 (OUTER PERIMETER)
G1 X16.8190 Y-22.2670 F450 (OUTER PERIMETER)
G1 X16.8390 Y-22.2520 F450 (OUTER PERIMETER)
G1 X17.7810 Y-21.5080 F450 (OUTER PERIMETER)
G1 X18.7100 Y-20.7050 F450 (OUTER PERIMETER)
G1 X18.7300 Y-20.6870 F450 (OUTER PERIMETER)
G1 X18.7320 Y-20.6850 F450 (OUTER PERIMETER)
G1 X19.6350 Y-19.8320 F450 (OUTER PERIMETER)
G1 X19.6360 Y-19.8310 F450 (OUTER PERIMETER)
G1 X19.6350 Y-19.8310 F450 (OUTER PERIMETER)
G1 X20.5030 Y-18.9340 F450 (OUTER PERIMETER)
G1 X21.3020 Y-18.0300 F450 (OUTER PERIMETER)
G1 X21.3160 Y-18.0140 F450 (OUTER PERIMETER)
G1 X21.3170 Y-18.0120 F450 (OUTER PERIMETER)
G1 X22.0880 Y-17.0600 F450 (OUTER PERIMETER)
G1 X22.8390 Y-16.0410 F450 (OUTER PERIMETER)
G1 X23.5230 Y-15.0210 F450 (OUTER PERIMETER)
G1 X23.5290 Y-15.0120 F450 (OUTER PERIMETER)
G1 X24.1730 Y-13.9520 F450 (OUTER PERIMETER)
G1 X24.1820 Y-13.9360 F450 (OUTER PERIMETER)
G1 X24.7730 Y-12.8580 F450 (OUTER PERIMETER)
G1 X25.3220 Y-11.7420 F450 (OUTER PERIMETER)
G1 X25.8310 Y-10.5800 F450 (OUTER PERIMETER)
G1 X26.2720 Y-9.4330 F450 (OUTER PERIMETER)
G1 X26.6660 Y-8.2560 F450 (OUTER PERIMETER)
G1 X27.0070 Y-7.0650 F450 (OUTER PERIMETER)
G1 X27.1150 Y-6.5710 F450 (OUTER PERIMETER)
G1 X27.1280 Y-6.5590 F450 (OUTER PERIMETER)
G1 X27.2980 Y-5.8430 F450 (OUTER PERIMETER)
G1 X27.5340 Y-4.6130 F450 (OUTER PERIMETER)
G1 X27.7140 Y-3.3790 F450 (OUTER PERIMETER)
G1 X27.8360 Y-2.1550 F450 (OUTER PERIMETER)
G1 X27.9050 Y-0.9410 F450 (OUTER PERIMETER)
G1 X27.9060 Y-0.9080 F450 (OUTER PERIMETER)
G1 X27.9220 Y0.0240 F450 (OUTER PERIMETER)
G1 X27.9200 Y0.3120 F450 (OUTER PERIMETER)
G1 X27.8790 Y1.5510 F450 (OUTER PERIMETER)
G1 X27.8770 Y1.5830 F450 (OUTER PERIMETER)
G1 X27.7800 Y2.8270 F450 (OUTER PERIMETER)
G1 X27.6280 Y4.0610 F450 (OUTER PERIMETER)
G1 X27.4210 Y5.2840 F450 (OUTER PERIMETER)
G1 X27.1640 Y6.4840 F450 (OUTER PERIMETER)
G1 X26.8470 Y7.6940 F450 (OUTER PERIMETER)
G1 X26.8460 Y7.6970 F450 (OUTER PERIMETER)
G1 X26.4720 Y8.9000 F450 (OUTER PERIMETER)
G1 X26.0500 Y10.0720 F450 (OUTER PERIMETER)
G1 X25.5820 Y11.2100 F450 (OUTER PERIMETER)
G1 X25.5760 Y11.2230 F450 (OUTER PERIMETER)
G1 X25.0460 Y12.3630 F450 (OUTER PERIMETER)
G1 X24.4920 Y13.4290 F450 (OUTER PERIMETER)
G1 X23.8590 Y14.5260 F450 (OUTER PERIMETER)
G1 X23.1980 Y15.5620 F450 (OUTER PERIMETER)
G1 X22.4880 Y16.5720 F450 (OUTER PERIMETER)
G1 X22.4540 Y16.6190 F450 (OUTER PERIMETER)
G1 X21.7330 Y17.5530 F450 (OUTER PERIMETER)
G1 X20.9330 Y18.5010 F450 (OUTER PERIMETER)
G1 X20.9100 Y18.5270 F450 (OUTER PERIMETER)
G1 X20.0630 Y19.4420 F450 (OUTER PERIMETER)
G1 X19.1800 Y20.3150 F450 (OUTER PERIMETER)
G1 X18.2690 Y21.1390 F450 (OUTER PERIMETER)
G1 X18.2340 Y21.1690 F450 (OUTER PERIMETER)
G1 X17.2990 Y21.9410 F450 (OUTER PERIMETER)
G1 X16.3240 Y22.6760 F450 (OUTER PERIMETER)
G1 X16.2970 Y22.6950 F450 (OUTER PERIMETER)
G1 X15.2870 Y23.3890 F450 (OUTER PERIMETER)
G1 X14.2430 Y24.0400 F450 (OUTER PERIMETER)
G1 X14.1910 Y24.0700 F450 (OUTER PERIMETER)
G1 X13.1410 Y24.6600 F450 (OUTER PERIMETER)
G1 X12.0320 Y25.2210 F450 (OUTER PERIMETER)
G1 X10.9030 Y25.7290 F450 (OUTER PERIMETER)
G1 X10.8910 Y25.7340 F450 (OUTER PERIMETER)
G1 X9.7240 Y26.1990 F450 (OUTER PERIMETER)
G1 X8.5510 Y26.6050 F450 (OUTER PERIMETER)
G1 X7.3790 Y26.9540 F450 (OUTER PERIMETER)
G1 X7.3690 Y26.9570 F450 (OUTER PERIMETER)
G1 X6.1690 Y27.2570 F450 (OUTER PERIMETER)
G1 X4.9480 Y27.5060 F450 (OUTER PERIMETER)
G1 X3.7200 Y27.6990 F450 (OUTER PERIMETER)
G1 X2.4900 Y27.8370 F450 (OUTER PERIMETER)
G1 X1.2500 Y27.9200 F450 (OUTER PERIMETER)
G1 X-0.0060 Y27.9490 F450 (OUTER PERIMETER)
G1 X-1.2610 Y27.9200 F450 (OUTER PERIMETER)
G1 X-2.5000 Y27.8370 F450 (OUTER PERIMETER)
G1 X-3.7150 Y27.7010 F450 (OUTER PERIMETER)
G1 X-4.9520 Y27.5070 F450 (OUTER PERIMETER)
G1 X-4.9560 Y27.5060 F450 (OUTER PERIMETER)
G1 X-6.1720 Y27.2590 F450 (OUTER PERIMETER)
G1 X-6.1760 Y27.2580 F450 (OUTER PERIMETER)
G1 X-7.4050 Y26.9500 F450 (OUTER PERIMETER)
G1 X-8.5550 Y26.6070 F450 (OUTER PERIMETER)
G1 X-9.7330 Y26.1990 F450 (OUTER PERIMETER)
G1 X-9.7460 Y26.1940 F450 (OUTER PERIMETER)
G1 X-10.9030 Y25.7340 F450 (OUTER PERIMETER)
G1 X-12.0390 Y25.2230 F450 (OUTER PERIMETER)
G1 X-12.0500 Y25.2170 F450 (OUTER PERIMETER)
G1 X-13.1730 Y24.6490 F450 (OUTER PERIMETER)
G1 X-14.2390 Y24.0490 F450 (OUTER PERIMETER)
G1 X-15.2860 Y23.3970 F450 (OUTER PERIMETER)
G1 X-15.3050 Y23.3840 F450 (OUTER PERIMETER)
G1 X-16.3440 Y22.6690 F450 (OUTER PERIMETER)
G1 X-17.3120 Y21.9390 F450 (OUTER PERIMETER)
G1 X-17.3190 Y21.9330 F450 (OUTER PERIMETER)
G1 X-17.3200 Y21.9330 F450 (OUTER PERIMETER)
G1 X-18.2640 Y21.1520 F450 (OUTER PERIMETER)
G1 X-19.1930 Y20.3120 F450 (OUTER PERIMETER)
G1 X-19.1990 Y20.3060 F450 (OUTER PERIMETER)
G1 X-20.0910 Y19.4240 F450 (OUTER PERIMETER)
( -------------------- laser_off.txt --- )
/LPW=0               (LASER POWER)
(/)
( -------------------- )
(Laser Tech)
G0 X-18.1540 Y17.8240 (TRAVEL)
( -------------------- laser_on.txt --- )
/LPW=LPWW        (LASER POWER)
( -------------------- )
G1 F900 X-18.1540 Y-17.7780 (INFILL)
( -------------------- laser_off.txt --- )
/LPW=0               (LASER POWER)
(/)
( -------------------- )
(Laser Tech)
G0 X-16.5040 Y-19.3170 (TRAVEL)
( -------------------- laser_on.txt --- )
/LPW=LPWW        (LASER POWER)
( -------------------- )
G1 F900 X-16.5040 Y19.3630 (INFILL)
( -------------------- laser_off.txt --- )
/LPW=0               (LASER POWER)
(/)
( -------------------- )
(Laser Tech)
G0 X-14.8540 Y20.6580 (TRAVEL)
( -------------------- laser_on.txt --- )
/LPW=LPWW        (LASER POWER)
( -------------------- )
G1 F900 X-14.8540 Y15.6390 (INFILL)
G1 F900 X-13.2040 Y15.6390 (INFILL)
G1 F900 X-13.2040 Y21.7480 (INFILL)
G1 F900 X-11.5540 Y22.6650 (INFILL)
G1 F900 X-11.5540 Y15.6390 (INFILL)
G1 F900 X-9.9040 Y15.6390 (INFILL)
G1 F900 X-9.9040 Y23.4420 (INFILL)
G1 F900 X-8.2540 Y24.0640 (INFILL)
G1 F900 X-8.2540 Y15.6390 (INFILL)
G1 F900 X-6.6040 Y15.6390 (INFILL)
G1 F900 X-6.6040 Y24.5730 (INFILL)
G1 F900 X-4.9540 Y24.9550 (INFILL)
G1 F900 X-4.9540 Y15.6390 (INFILL)
G1 F900 X-3.3040 Y15.6390 (INFILL)
G1 F900 X-3.3040 Y25.2320 (INFILL)
G1 F900 X-1.6540 Y25.3890 (INFILL)
G1 F900 X-1.6540 Y15.6390 (INFILL)
G1 F900 X-0.0040 Y15.6390 (INFILL)
G1 F900 X-0.0040 Y25.4470 (INFILL)
G1 F900 X1.6460 Y25.3890 (INFILL)
G1 F900 X1.6460 Y15.6390 (INFILL)
G1 F900 X3.2960 Y15.6390 (INFILL)
G1 F900 X3.2960 Y25.2310 (INFILL)
G1 F900 X4.9460 Y24.9540 (INFILL)
G1 F900 X4.9460 Y15.6390 (INFILL)
G1 F900 X6.5960 Y15.6390 (INFILL)
G1 F900 X6.5960 Y24.5730 (INFILL)
G1 F900 X8.2460 Y24.0650 (INFILL)
G1 F900 X8.2460 Y15.6390 (INFILL)
G1 F900 X9.8960 Y15.6390 (INFILL)
G1 F900 X9.8960 Y23.4380 (INFILL)
G1 F900 X11.5460 Y22.6650 (INFILL)
G1 F900 X11.5460 Y15.6390 (INFILL)
G1 F900 X13.1960 Y15.6390 (INFILL)
G1 F900 X13.1960 Y21.7470 (INFILL)
G1 F900 X14.8460 Y20.6590 (INFILL)
G1 F900 X14.8460 Y15.6390 (INFILL)
( -------------------- laser_off.txt --- )
/LPW=0               (LASER POWER)
(/)
( -------------------- )
(Laser Tech)
G0 X18.1460 Y17.8220 (TRAVEL)
( -------------------- laser_on.txt --- )
/LPW=LPWW        (LASER POWER)
( -------------------- )
G1 F900 X18.1460 Y-17.7750 (INFILL)
( -------------------- laser_off.txt --- )
/LPW=0               (LASER POWER)
(/)
( -------------------- )
(Laser Tech)
G0 X16.4960 Y-19.3140 (TRAVEL)
( -------------------- laser_on.txt --- )
/LPW=LPWW        (LASER POWER)
( -------------------- )
G1 F900 X16.4960 Y19.3620 (INFILL)
( -------------------- laser_off.txt --- )
/LPW=0               (LASER POWER)
(/)
( -------------------- )
(Laser Tech)
G0 X19.7960 Y15.9710 (TRAVEL)
( -------------------- laser_on.txt --- )
/LPW=LPWW        (LASER POWER)
( -------------------- )
G1 F900 X19.7960 Y-15.9170 (INFILL)
( -------------------- laser_off.txt --- )
/LPW=0               (LASER POWER)
(/)
( -------------------- )
(Laser Tech)
G0 X21.4460 Y-13.6250 (TRAVEL)
( -------------------- laser_on.txt --- )
/LPW=LPWW        (LASER POWER)
( -------------------- )
G1 F900 X21.4460 Y13.6620 (INFILL)
( -------------------- laser_off.txt --- )
/LPW=0               (LASER POWER)
(/)
( -------------------- )
(Laser Tech)
G0 X23.0960 Y10.6260 (TRAVEL)
( -------------------- laser_on.txt --- )
/LPW=LPWW        (LASER POWER)
( -------------------- )
G1 F900 X23.0960 Y-10.5920 (INFILL)
( -------------------- laser_off.txt --- )
/LPW=0               (LASER POWER)
(/)
( -------------------- )
(Laser Tech)
G0 X24.7460 Y-5.6980 (TRAVEL)
( -------------------- laser_on.txt --- )
/LPW=LPWW        (LASER POWER)
( -------------------- )
G1 F900 X24.7460 Y5.8370 (INFILL)
( -------------------- laser_off.txt --- )
/LPW=0               (LASER POWER)
(/)
( -------------------- )
(Laser Tech)
G0 X14.8460 Y-15.5960 (TRAVEL)
( -------------------- laser_on.txt --- )
/LPW=LPWW        (LASER POWER)
( -------------------- )
G1 F900 X14.8460 Y-20.6000 (INFILL)
G1 F900 X13.1960 Y-21.7040 (INFILL)
G1 F900 X13.1960 Y-15.5960 (INFILL)
G1 F900 X11.5460 Y-15.5960 (INFILL)
G1 F900 X11.5460 Y-22.6260 (INFILL)
G1 F900 X9.8960 Y-23.3900 (INFILL)
G1 F900 X9.8960 Y-15.5960 (INFILL)
G1 F900 X8.2460 Y-15.5960 (INFILL)
G1 F900 X8.2460 Y-24.0250 (INFILL)
G1 F900 X6.5960 Y-24.5250 (INFILL)
G1 F900 X6.5960 Y-15.5960 (INFILL)
G1 F900 X4.9460 Y-15.5960 (INFILL)
G1 F900 X4.9460 Y-24.9160 (INFILL)
G1 F900 X3.2960 Y-25.1840 (INFILL)
G1 F900 X3.2960 Y-15.5960 (INFILL)
G1 F900 X1.6460 Y-15.5960 (INFILL)
G1 F900 X1.6460 Y-25.3500 (INFILL)
G1 F900 X-0.0040 Y-25.3980 (INFILL)
G1 F900 X-0.0040 Y-15.5960 (INFILL)
G1 F900 X-1.6540 Y-15.5960 (INFILL)
G1 F900 X-1.6540 Y-25.3500 (INFILL)
G1 F900 X-3.3040 Y-25.1840 (INFILL)
G1 F900 X-3.3040 Y-15.5960 (INFILL)
G1 F900 X-4.9540 Y-15.5960 (INFILL)
G1 F900 X-4.9540 Y-24.9160 (INFILL)
G1 F900 X-6.6040 Y-24.5250 (INFILL)
G1 F900 X-6.6040 Y-15.5960 (INFILL)
G1 F900 X-8.2540 Y-15.5960 (INFILL)
G1 F900 X-8.2540 Y-24.0280 (INFILL)
G1 F900 X-9.9040 Y-23.3910 (INFILL)
G1 F900 X-9.9040 Y-15.5960 (INFILL)
G1 F900 X-11.5540 Y-15.5960 (INFILL)
G1 F900 X-11.5540 Y-22.6270 (INFILL)
G1 F900 X-13.2040 Y-21.7030 (INFILL)
G1 F900 X-13.2040 Y-15.5960 (INFILL)
G1 F900 X-14.8540 Y-15.5960 (INFILL)
G1 F900 X-14.8540 Y-20.6110 (INFILL)
( -------------------- laser_off.txt --- )
/LPW=0               (LASER POWER)
(/)
( -------------------- )
(Laser Tech)
G0 X-19.8040 Y-15.9190 (TRAVEL)
( -------------------- laser_on.txt --- )
/LPW=LPWW        (LASER POWER)
( -------------------- )
G1 F900 X-19.8040 Y15.9730 (INFILL)
( -------------------- laser_off.txt --- )
/LPW=0               (LASER POWER)
(/)
( -------------------- )
(Laser Tech)
G0 X-21.4540 Y13.6640 (TRAVEL)
( -------------------- laser_on.txt --- )
/LPW=LPWW        (LASER POWER)
( -------------------- )
G1 F900 X-21.4540 Y-13.6290 (INFILL)
( -------------------- laser_off.txt --- )
/LPW=0               (LASER POWER)
(/)
( -------------------- )
(Laser Tech)
G0 X-23.1040 Y-10.5980 (TRAVEL)
( -------------------- laser_on.txt --- )
/LPW=LPWW        (LASER POWER)
( -------------------- )
G1 F900 X-23.1040 Y10.6330 (INFILL)
( -------------------- laser_off.txt --- )
/LPW=0               (LASER POWER)
(/)
( -------------------- )
(Laser Tech)
G0 X-24.7540 Y5.8380 (TRAVEL)
( -------------------- laser_on.txt --- )
/LPW=LPWW        (LASER POWER)
( -------------------- )
G1 F900 X-24.7540 Y-5.7820 (INFILL)
( -------------------- laser_off.txt --- )
/LPW=0               (LASER POWER)
(/)
( -------------------- )
(Laser Tech)

(BEGINNING LAYER: 2)
( -------------------- laser_on.txt --- )

(Nozzle 0)
G0 X150 Y-150 (TRAVEL)
C0
M671
VC1000 = VC1000 + 1
G04 F=60 (DWELL 60S)
C-316.028

G0 X-19.7960 Y19.1730 Z0.8103 (TRAVEL)
( -------------------- laser_on.txt --- )
/LPW=LPWW        (LASER POWER)
( -------------------- )
G1 X-19.8520 Y19.1140 F450 (OUTER PERIMETER)
G1 X-20.6040 Y18.3020 F450 (OUTER PERIMETER)
G1 X-20.6310 Y18.2710 F450 (OUTER PERIMETER)
G1 X-20.6730 Y18.2230 F450 (OUTER PERIMETER)
G1 X-20.7130 Y18.1750 F450 (OUTER PERIMETER)
G1 X-21.4230 Y17.3350 F450 (OUTER PERIMETER)
G1 X-22.1800 Y16.3530 F450 (OUTER PERIMETER)
G1 X-22.2370 Y16.2750 F450 (OUTER PERIMETER)
G1 X-22.8790 Y15.3610 F450 (OUTER PERIMETER)
G1 X-22.9180 Y15.3010 F450 (OUTER PERIMETER)
G1 X-22.9440 Y15.2590 F450 (OUTER PERIMETER)
G1 X-23.5510 Y14.3080 F450 (OUTER PERIMETER)
G1 X-23.5590 Y14.2940 F450 (OUTER PERIMETER)
G1 X-23.6040 Y14.2150 F450 (OUTER PERIMETER)
G1 X-24.1490 Y13.2720 F450 (OUTER PERIMETER)
G1 X-24.2030 Y13.1690 F450 (OUTER PERIMETER)
G1 X-24.7120 Y12.1890 F450 (OUTER PERIMETER)
G1 X-24.7500 Y12.1090 F450 (OUTER PERIMETER)
G1 X-25.2240 Y11.0900 F450 (OUTER PERIMETER)
G1 X-25.2330 Y11.0710 F450 (OUTER PERIMETER)
G1 X-25.2410 Y11.0510 F450 (OUTER PERIMETER)
G1 X-25.2860 Y10.9400 F450 (OUTER PERIMETER)
G1 X-25.7050 Y9.9190 F450 (OUTER PERIMETER)
G1 X-25.7380 Y9.8300 F450 (OUTER PERIMETER)
G1 X-26.1240 Y8.7570 F450 (OUTER PERIMETER)
G1 X-26.1410 Y8.7030 F450 (OUTER PERIMETER)
G1 X-26.4710 Y7.6400 F450 (OUTER PERIMETER)
G1 X-26.4830 Y7.5970 F450 (OUTER PERIMETER)
G1 X-26.4900 Y7.5730 F450 (OUTER PERIMETER)
G1 X-26.5150 Y7.4760 F450 (OUTER PERIMETER)
G1 X-26.7990 Y6.3910 F450 (OUTER PERIMETER)
G1 X-26.8190 Y6.2990 F450 (OUTER PERIMETER)
G1 X-27.0530 Y5.2090 F450 (OUTER PERIMETER)
G1 X-27.0660 Y5.1320 F450 (OUTER PERIMETER)
G1 X-27.2540 Y4.0170 F450 (OUTER PERIMETER)
G1 X-27.2580 Y3.9890 F450 (OUTER PERIMETER)
G1 X-27.2590 Y3.9890 F450 (OUTER PERIMETER)
G1 X-27.2610 Y3.9750 F450 (OUTER PERIMETER)
G1 X-27.2600 Y3.9750 F450 (OUTER PERIMETER)
G1 X-27.2730 Y3.8730 F450 (OUTER PERIMETER)
G1 X-27.4060 Y2.7860 F450 (OUTER PERIMETER)
G1 X-27.5040 Y1.5400 F450 (OUTER PERIMETER)
G1 X-27.5060 Y1.4780 F450 (OUTER PERIMETER)
G1 X-27.5430 Y0.3680 F450 (OUTER PERIMETER)
G1 X-27.5440 Y0.3150 F450 (OUTER PERIMETER)
G1 X-27.5440 Y0.3130 F450 (OUTER PERIMETER)
G1 X-27.5420 Y0.2100 F450 (OUTER PERIMETER)
G1 X-27.5300 Y-0.9050 F450 (OUTER PERIMETER)
G1 X-27.5290 Y-0.9210 F450 (OUTER PERIMETER)
G1 X-27.5280 Y-0.9290 F450 (OUTER PERIMETER)
G1 X-27.4630 Y-2.1130 F450 (OUTER PERIMETER)
G1 X-27.4530 Y-2.2190 F450 (OUTER PERIMETER)
G1 X-27.3470 Y-3.2820 F450 (OUTER PERIMETER)
G1 X-27.3400 Y-3.3340 F450 (OUTER PERIMETER)
G1 X-27.3320 Y-3.4000 F450 (OUTER PERIMETER)
G1 X-27.3230 Y-3.4520 F450 (OUTER PERIMETER)
G1 X-27.1580 Y-4.5820 F450 (OUTER PERIMETER)
G1 X-27.1390 Y-4.6770 F450 (OUTER PERIMETER)
G1 X-26.9250 Y-5.7920 F450 (OUTER PERIMETER)
G1 X-26.6540 Y-6.9310 F450 (OUTER PERIMETER)
G1 X-26.6330 Y-7.0060 F450 (OUTER PERIMETER)
G1 X-26.3270 Y-8.0780 F450 (OUTER PERIMETER)
G1 X-26.3050 Y-8.1510 F450 (OUTER PERIMETER)
G1 X-26.3050 Y-8.1520 F450 (OUTER PERIMETER)
G1 X-26.2710 Y-8.2500 F450 (OUTER PERIMETER)
G1 X-25.9220 Y-9.2950 F450 (OUTER PERIMETER)
G1 X-25.8850 Y-9.3920 F450 (OUTER PERIMETER)
G1 X-25.4850 Y-10.4300 F450 (OUTER PERIMETER)
G1 X-25.4550 Y-10.5010 F450 (OUTER PERIMETER)
G1 X-25.0080 Y-11.5250 F450 (OUTER PERIMETER)
G1 X-24.9820 Y-11.5830 F450 (OUTER PERIMETER)
G1 X-24.9790 Y-11.5880 F450 (OUTER PERIMETER)
G1 X-24.9730 Y-11.6010 F450 (OUTER PERIMETER)
G1 X-24.9330 Y-11.6820 F450 (OUTER PERIMETER)
G1 X-24.4470 Y-12.6700 F450 (OUTER PERIMETER)
G1 X-24.3960 Y-12.7640 F450 (OUTER PERIMETER)
G1 X-23.8520 Y-13.7550 F450 (OUTER PERIMETER)
G1 X-23.8130 Y-13.8210 F450 (OUTER PERIMETER)
G1 X-23.2440 Y-14.7580 F450 (OUTER PERIMETER)
G1 X-23.2300 Y-14.7810 F450 (OUTER PERIMETER)
G1 X-23.2130 Y-14.8070 F450 (OUTER PERIMETER)
G1 X-23.1530 Y-14.8950 F450 (OUTER PERIMETER)
G1 X-22.5280 Y-15.8270 F450 (OUTER PERIMETER)
G1 X-21.7900 Y-16.8270 F450 (OUTER PERIMETER)
G1 X-21.7610 Y-16.8630 F450 (OUTER PERIMETER)
G1 X-21.0450 Y-17.7500 F450 (OUTER PERIMETER)
G1 X-21.0450 Y-17.7510 F450 (OUTER PERIMETER)
G1 X-21.0440 Y-17.7500 F450 (OUTER PERIMETER)
G1 X-20.9960 Y-17.8060 F450 (OUTER PERIMETER)
G1 X-20.9610 Y-17.8440 F450 (OUTER PERIMETER)
G1 X-20.2200 Y-18.6820 F450 (OUTER PERIMETER)
G1 X-20.2050 Y-18.6980 F450 (OUTER PERIMETER)
G1 X-20.1420 Y-18.7620 F450 (OUTER PERIMETER)
G1 X-19.3640 Y-19.5660 F450 (OUTER PERIMETER)
G1 X-19.2980 Y-19.6300 F450 (OUTER PERIMETER)
G1 X-18.4840 Y-20.4000 F450 (OUTER PERIMETER)
G1 X-18.4760 Y-20.4070 F450 (OUTER PERIMETER)
G1 X-18.4630 Y-20.4180 F450 (OUTER PERIMETER)
G1 X-18.3920 Y-20.4790 F450 (OUTER PERIMETER)
G1 X-17.5460 Y-21.2100 F450 (OUTER PERIMETER)
G1 X-17.4540 Y-21.2820 F450 (OUTER PERIMETER)
G1 X-16.5710 Y-21.9790 F450 (OUTER PERIMETER)
G1 X-16.5140 Y-22.0200 F450 (OUTER PERIMETER)
G1 X-15.6080 Y-22.6720 F450 (OUTER PERIMETER)
G1 X-15.5780 Y-22.6930 F450 (OUTER PERIMETER)
G1 X-15.5490 Y-22.7120 F450 (OUTER PERIMETER)
G1 X-14.6100 Y-23.3260 F450 (OUTER PERIMETER)
G1 X-14.5570 Y-23.3600 F450 (OUTER PERIMETER)
G1 X-14.4620 Y-23.4150 F450 (OUTER PERIMETER)
G1 X-13.5000 Y-23.9860 F450 (OUTER PERIMETER)
G1 X-13.4230 Y-24.0260 F450 (OUTER PERIMETER)
G1 X-12.4330 Y-24.5550 F450 (OUTER PERIMETER)
G1 X-12.4080 Y-24.5680 F450 (OUTER PERIMETER)
G1 X-12.3730 Y-24.5850 F450 (OUTER PERIMETER)
G1 X-11.3450 Y-25.0760 F450 (OUTER PERIMETER)
G1 X-11.3000 Y-25.0960 F450 (OUTER PERIMETER)
G1 X-11.2080 Y-25.1340 F450 (OUTER PERIMETER)
G1 X-10.1890 Y-25.5670 F450 (OUTER PERIMETER)
G1 X-9.0630 Y-25.9860 F450 (OUTER PERIMETER)
G1 X-8.9540 Y-26.0230 F450 (OUTER PERIMETER)
G1 X-7.9010 Y-26.3620 F450 (OUTER PERIMETER)
G1 X-7.8760 Y-26.3700 F450 (OUTER PERIMETER)
G1 X-7.8520 Y-26.3770 F450 (OUTER PERIMETER)
G1 X-7.7590 Y-26.4010 F450 (OUTER PERIMETER)
G1 X-6.6940 Y-26.6940 F450 (OUTER PERIMETER)
G1 X-5.4690 Y-26.9710 F450 (OUTER PERIMETER)
G1 X-5.4040 Y-26.9830 F450 (OUTER PERIMETER)
G1 X-4.3230 Y-27.1780 F450 (OUTER PERIMETER)
G1 X-4.2980 Y-27.1820 F450 (OUTER PERIMETER)
G1 X-4.2460 Y-27.1900 F450 (OUTER PERIMETER)
G1 X-4.1680 Y-27.1990 F450 (OUTER PERIMETER)
G1 X-3.0620 Y-27.3480 F450 (OUTER PERIMETER)
G1 X-3.0270 Y-27.3520 F450 (OUTER PERIMETER)
G1 X-3.0180 Y-27.3520 F450 (OUTER PERIMETER)
G1 X-1.8330 Y-27.4580 F450 (OUTER PERIMETER)
G1 X-1.7390 Y-27.4630 F450 (OUTER PERIMETER)
G1 X-0.6230 Y-27.5120 F450 (OUTER PERIMETER)
G1 X-0.6180 Y-27.5120 F450 (OUTER PERIMETER)
G1 X-0.5540 Y-27.5130 F450 (OUTER PERIMETER)
G1 X0.5430 Y-27.5130 F450 (OUTER PERIMETER)
G1 X0.6030 Y-27.5120 F450 (OUTER PERIMETER)
G1 X0.6040 Y-27.5120 F450 (OUTER PERIMETER)
G1 X0.7300 Y-27.5060 F450 (OUTER PERIMETER)
G1 X1.8450 Y-27.4560 F450 (OUTER PERIMETER)
G1 X3.0210 Y-27.3520 F450 (OUTER PERIMETER)
G1 X3.0520 Y-27.3480 F450 (OUTER PERIMETER)
G1 X3.1290 Y-27.3390 F450 (OUTER PERIMETER)
G1 X4.2130 Y-27.1930 F450 (OUTER PERIMETER)
G1 X4.2730 Y-27.1840 F450 (OUTER PERIMETER)
G1 X4.3020 Y-27.1790 F450 (OUTER PERIMETER)
G1 X4.3910 Y-27.1630 F450 (OUTER PERIMETER)
G1 X5.4680 Y-26.9690 F450 (OUTER PERIMETER)
G1 X5.5770 Y-26.9460 F450 (OUTER PERIMETER)
G1 X5.5770 Y-26.9450 F450 (OUTER PERIMETER)
G1 X6.6660 Y-26.6990 F450 (OUTER PERIMETER)
G1 X7.8220 Y-26.3820 F450 (OUTER PERIMETER)
G1 X7.8650 Y-26.3700 F450 (OUTER PERIMETER)
G1 X7.8900 Y-26.3620 F450 (OUTER PERIMETER)
G1 X7.9780 Y-26.3340 F450 (OUTER PERIMETER)
G1 X9.0380 Y-25.9920 F450 (OUTER PERIMETER)
G1 X9.1230 Y-25.9590 F450 (OUTER PERIMETER)
G1 X10.1740 Y-25.5690 F450 (OUTER PERIMETER)
G1 X10.1920 Y-25.5620 F450 (OUTER PERIMETER)
G1 X10.2410 Y-25.5410 F450 (OUTER PERIMETER)
G1 X11.2630 Y-25.1080 F450 (OUTER PERIMETER)
G1 X11.3060 Y-25.0880 F450 (OUTER PERIMETER)
G1 X11.3540 Y-25.0670 F450 (OUTER PERIMETER)
G1 X11.4160 Y-25.0360 F450 (OUTER PERIMETER)
G1 X12.4140 Y-24.5590 F450 (OUTER PERIMETER)
G1 X12.4230 Y-24.5550 F450 (OUTER PERIMETER)
G1 X12.5130 Y-24.5060 F450 (OUTER PERIMETER)
G1 X13.4780 Y-23.9920 F450 (OUTER PERIMETER)
G1 X13.5780 Y-23.9340 F450 (OUTER PERIMETER)
G1 X13.5780 Y-23.9350 F450 (OUTER PERIMETER)
G1 X14.5310 Y-23.3700 F450 (OUTER PERIMETER)
G1 X14.5310 Y-23.3690 F450 (OUTER PERIMETER)
G1 X14.5430 Y-23.3620 F450 (OUTER PERIMETER)
G1 X14.5990 Y-23.3260 F450 (OUTER PERIMETER)
G1 X14.6540 Y-23.2890 F450 (OUTER PERIMETER)
G1 X15.5810 Y-22.6840 F450 (OUTER PERIMETER)
G1 X15.6780 Y-22.6140 F450 (OUTER PERIMETER)
G1 X16.5670 Y-21.9740 F450 (OUTER PERIMETER)
G1 X16.6430 Y-21.9150 F450 (OUTER PERIMETER)
G1 X17.5260 Y-21.2170 F450 (OUTER PERIMETER)
G1 X17.5900 Y-21.1630 F450 (OUTER PERIMETER)
G1 X17.5910 Y-21.1640 F450 (OUTER PERIMETER)
G1 X18.4210 Y-20.4460 F450 (OUTER PERIMETER)
G1 X18.4650 Y-20.4070 F450 (OUTER PERIMETER)
G1 X18.4840 Y-20.3890 F450 (OUTER PERIMETER)
G1 X18.5580 Y-20.3190 F450 (OUTER PERIMETER)
G1 X19.3580 Y-19.5630 F450 (OUTER PERIMETER)
G1 X19.4250 Y-19.4950 F450 (OUTER PERIMETER)
G1 X19.4240 Y-19.4940 F450 (OUTER PERIMETER)
G1 X20.2160 Y-18.6750 F450 (OUTER PERIMETER)
G1 X20.9970 Y-17.7930 F450 (OUTER PERIMETER)
G1 X21.0130 Y-17.7750 F450 (OUTER PERIMETER)
G1 X21.0460 Y-17.7350 F450 (OUTER PERIMETER)
G1 X21.1020 Y-17.6640 F450 (OUTER PERIMETER)
G1 X21.8010 Y-16.8000 F450 (OUTER PERIMETER)
G1 X21.8570 Y-16.7240 F450 (OUTER PERIMETER)
G1 X22.5180 Y-15.8270 F450 (OUTER PERIMETER)
G1 X22.5600 Y-15.7660 F450 (OUTER PERIMETER)
G1 X23.1840 Y-14.8360 F450 (OUTER PERIMETER)
G1 X23.2020 Y-14.8090 F450 (OUTER PERIMETER)
G1 X23.2110 Y-14.7950 F450 (OUTER PERIMETER)
G1 X23.2690 Y-14.6970 F450 (OUTER PERIMETER)
G1 X23.8560 Y-13.7300 F450 (OUTER PERIMETER)
G1 X23.8950 Y-13.6570 F450 (OUTER PERIMETER)
G1 X24.4470 Y-12.6510 F450 (OUTER PERIMETER)
G1 X24.4660 Y-12.6110 F450 (OUTER PERIMETER)
G1 X24.9620 Y-11.6010 F450 (OUTER PERIMETER)
G1 X24.9690 Y-11.5870 F450 (OUTER PERIMETER)
G1 X24.9970 Y-11.5250 F450 (OUTER PERIMETER)
G1 X25.0240 Y-11.4620 F450 (OUTER PERIMETER)
G1 X25.4720 Y-10.4370 F450 (OUTER PERIMETER)
G1 X25.5090 Y-10.3410 F450 (OUTER PERIMETER)
G1 X25.9100 Y-9.2990 F450 (OUTER PERIMETER)
G1 X25.9340 Y-9.2300 F450 (OUTER PERIMETER)
G1 X26.2880 Y-8.1710 F450 (OUTER PERIMETER)
G1 X26.2940 Y-8.1510 F450 (OUTER PERIMETER)
G1 X26.3160 Y-8.0780 F450 (OUTER PERIMETER)
G1 X26.3320 Y-8.0220 F450 (OUTER PERIMETER)
G1 X26.6460 Y-6.9200 F450 (OUTER PERIMETER)
G1 X26.7070 Y-6.6480 F450 (OUTER PERIMETER)
G1 X26.7140 Y-6.6350 F450 (OUTER PERIMETER)
G1 X26.9150 Y-5.7910 F450 (OUTER PERIMETER)
G1 X26.9370 Y-5.6810 F450 (OUTER PERIMETER)
G1 X27.1520 Y-4.5590 F450 (OUTER PERIMETER)
G1 X27.1560 Y-4.5380 F450 (OUTER PERIMETER)
G1 X27.1600 Y-4.5140 F450 (OUTER PERIMETER)
G1 X27.1590 Y-4.5140 F450 (OUTER PERIMETER)
G1 X27.3210 Y-3.4000 F450 (OUTER PERIMETER)
G1 X27.3280 Y-3.3500 F450 (OUTER PERIMETER)
G1 X27.3400 Y-3.2250 F450 (OUTER PERIMETER)
G1 X27.4510 Y-2.1280 F450 (OUTER PERIMETER)
G1 X27.5200 Y-0.9180 F450 (OUTER PERIMETER)
G1 X27.5190 Y-0.9180 F450 (OUTER PERIMETER)
G1 X27.5210 Y-0.8350 F450 (OUTER PERIMETER)
G1 X27.5350 Y-0.0090 F450 (OUTER PERIMETER)
G1 X27.5350 Y0.0570 F450 (OUTER PERIMETER)
G1 X27.5340 Y0.3150 F450 (OUTER PERIMETER)
G1 X27.5330 Y0.3610 F450 (OUTER PERIMETER)
G1 X27.5290 Y0.4450 F450 (OUTER PERIMETER)
G1 X27.4930 Y1.5400 F450 (OUTER PERIMETER)
G1 X27.4850 Y1.6550 F450 (OUTER PERIMETER)
G1 X27.3990 Y2.7530 F450 (OUTER PERIMETER)
G1 X27.3870 Y2.8620 F450 (OUTER PERIMETER)
G1 X27.2510 Y3.9710 F450 (OUTER PERIMETER)
G1 X27.2490 Y3.9890 F450 (OUTER PERIMETER)
G1 X27.2480 Y3.9890 F450 (OUTER PERIMETER)
G1 X27.2440 Y4.0170 F450 (OUTER PERIMETER)
G1 X27.2280 Y4.1080 F450 (OUTER PERIMETER)
G1 X27.0410 Y5.2170 F450 (OUTER PERIMETER)
G1 X27.0200 Y5.3110 F450 (OUTER PERIMETER)
G1 X26.7880 Y6.3940 F450 (OUTER PERIMETER)
G1 X26.7680 Y6.4730 F450 (OUTER PERIMETER)
G1 X26.4800 Y7.5730 F450 (OUTER PERIMETER)
G1 X26.4600 Y7.6400 F450 (OUTER PERIMETER)
G1 X26.4390 Y7.7070 F450 (OUTER PERIMETER)
G1 X26.1040 Y8.7850 F450 (OUTER PERIMETER)
G1 X26.1010 Y8.7950 F450 (OUTER PERIMETER)
G1 X25.7090 Y9.8840 F450 (OUTER PERIMETER)
G1 X25.6670 Y9.9910 F450 (OUTER PERIMETER)
G1 X25.2390 Y11.0300 F450 (OUTER PERIMETER)
G1 X25.2220 Y11.0710 F450 (OUTER PERIMETER)
G1 X25.2150 Y11.0850 F450 (OUTER PERIMETER)
G1 X25.1770 Y11.1660 F450 (OUTER PERIMETER)
G1 X24.7090 Y12.1760 F450 (OUTER PERIMETER)
G1 X24.4570 Y12.6530 F450 (OUTER PERIMETER)
G1 X24.4570 Y12.6600 F450 (OUTER PERIMETER)
G1 X24.1440 Y13.2610 F450 (OUTER PERIMETER)
G1 X24.1030 Y13.3330 F450 (OUTER PERIMETER)
G1 X23.5490 Y14.2940 F450 (OUTER PERIMETER)
G1 X23.5300 Y14.3250 F450 (OUTER PERIMETER)
G1 X22.9080 Y15.3010 F450 (OUTER PERIMETER)
G1 X22.9070 Y15.3010 F450 (OUTER PERIMETER)
G1 X22.8640 Y15.3670 F450 (OUTER PERIMETER)
G1 X22.8560 Y15.3790 F450 (OUTER PERIMETER)
G1 X22.8060 Y15.4490 F450 (OUTER PERIMETER)
G1 X22.1640 Y16.3620 F450 (OUTER PERIMETER)
G1 X21.4240 Y17.3210 F450 (OUTER PERIMETER)
G1 X21.3650 Y17.3930 F450 (OUTER PERIMETER)
G1 X20.6630 Y18.2230 F450 (OUTER PERIMETER)
G1 X20.6210 Y18.2710 F450 (OUTER PERIMETER)
G1 X20.6050 Y18.2900 F450 (OUTER PERIMETER)
G1 X20.5460 Y18.3510 F450 (OUTER PERIMETER)
G1 X19.7770 Y19.1830 F450 (OUTER PERIMETER)
G1 X19.7200 Y19.2400 F450 (OUTER PERIMETER)
G1 X19.7200 Y19.2390 F450 (OUTER PERIMETER)
G1 X18.9130 Y20.0360 F450 (OUTER PERIMETER)
G1 X18.8730 Y20.0730 F450 (OUTER PERIMETER)
G1 X18.0280 Y20.8370 F450 (OUTER PERIMETER)
G1 X18.0030 Y20.8600 F450 (OUTER PERIMETER)
G1 X18.0020 Y20.8600 F450 (OUTER PERIMETER)
G1 X17.9170 Y20.9300 F450 (OUTER PERIMETER)
G1 X17.0580 Y21.6390 F450 (OUTER PERIMETER)
G1 X16.0700 Y22.3840 F450 (OUTER PERIMETER)
G1 X16.0260 Y22.4150 F450 (OUTER PERIMETER)
G1 X15.1120 Y23.0420 F450 (OUTER PERIMETER)
G1 X15.0650 Y23.0730 F450 (OUTER PERIMETER)
G1 X15.0380 Y23.0910 F450 (OUTER PERIMETER)
G1 X14.9730 Y23.1300 F450 (OUTER PERIMETER)
G1 X14.0240 Y23.7220 F450 (OUTER PERIMETER)
G1 X12.9710 Y24.3140 F450 (OUTER PERIMETER)
G1 X11.8810 Y24.8650 F450 (OUTER PERIMETER)
G1 X11.8100 Y24.8980 F450 (OUTER PERIMETER)
G1 X11.7580 Y24.9210 F450 (OUTER PERIMETER)
G1 X10.7280 Y25.3840 F450 (OUTER PERIMETER)
G1 X10.6320 Y25.4220 F450 (OUTER PERIMETER)
G1 X9.5850 Y25.8390 F450 (OUTER PERIMETER)
G1 X9.5230 Y25.8600 F450 (OUTER PERIMETER)
G1 X8.4820 Y26.2220 F450 (OUTER PERIMETER)
G1 X8.4570 Y26.2300 F450 (OUTER PERIMETER)
G1 X8.3780 Y26.2550 F450 (OUTER PERIMETER)
G1 X7.3220 Y26.5690 F450 (OUTER PERIMETER)
G1 X7.2640 Y26.5860 F450 (OUTER PERIMETER)
G1 X7.2480 Y26.5900 F450 (OUTER PERIMETER)
G1 X7.1540 Y26.6130 F450 (OUTER PERIMETER)
G1 X6.0930 Y26.8790 F450 (OUTER PERIMETER)
G1 X5.9870 Y26.9010 F450 (OUTER PERIMETER)
G1 X4.8870 Y27.1250 F450 (OUTER PERIMETER)
G1 X4.8160 Y27.1360 F450 (OUTER PERIMETER)
G1 X3.7000 Y27.3110 F450 (OUTER PERIMETER)
G1 X3.6540 Y27.3180 F450 (OUTER PERIMETER)
G1 X3.5420 Y27.3310 F450 (OUTER PERIMETER)
G1 X2.4230 Y27.4550 F450 (OUTER PERIMETER)
G1 X2.3460 Y27.4600 F450 (OUTER PERIMETER)
G1 X1.2010 Y27.5360 F450 (OUTER PERIMETER)
G1 X1.1590 Y27.5380 F450 (OUTER PERIMETER)
G1 X1.1590 Y27.5370 F450 (OUTER PERIMETER)
G1 X0.0190 Y27.5620 F450 (OUTER PERIMETER)
G1 X-0.0050 Y27.5630 F450 (OUTER PERIMETER)
G1 X-0.0400 Y27.5620 F450 (OUTER PERIMETER)
G1 X-0.1250 Y27.5600 F450 (OUTER PERIMETER)
G1 X-1.2380 Y27.5350 F450 (OUTER PERIMETER)
G1 X-1.3420 Y27.5280 F450 (OUTER PERIMETER)
G1 X-2.4410 Y27.4550 F450 (OUTER PERIMETER)
G1 X-2.5270 Y27.4460 F450 (OUTER PERIMETER)
G1 X-3.6390 Y27.3210 F450 (OUTER PERIMETER)
G1 X-3.6880 Y27.3150 F450 (OUTER PERIMETER)
G1 X-3.7000 Y27.3140 F450 (OUTER PERIMETER)
G1 X-3.7000 Y27.3130 F450 (OUTER PERIMETER)
G1 X-3.7970 Y27.2980 F450 (OUTER PERIMETER)
G1 X-4.8930 Y27.1250 F450 (OUTER PERIMETER)
G1 X-4.9990 Y27.1030 F450 (OUTER PERIMETER)
G1 X-6.1090 Y26.8780 F450 (OUTER PERIMETER)
G1 X-6.1670 Y26.8640 F450 (OUTER PERIMETER)
G1 X-6.1670 Y26.8630 F450 (OUTER PERIMETER)
G1 X-7.2730 Y26.5860 F450 (OUTER PERIMETER)
G1 X-7.2740 Y26.5860 F450 (OUTER PERIMETER)
G1 X-7.3180 Y26.5730 F450 (OUTER PERIMETER)
G1 X-8.4810 Y26.2260 F450 (OUTER PERIMETER)
G1 X-8.4920 Y26.2220 F450 (OUTER PERIMETER)
G1 X-8.5730 Y26.1930 F450 (OUTER PERIMETER)
G1 X-9.6340 Y25.8240 F450 (OUTER PERIMETER)
G1 X-9.6970 Y25.8000 F450 (OUTER PERIMETER)
G1 X-9.6970 Y25.7990 F450 (OUTER PERIMETER)
G1 X-10.7560 Y25.3770 F450 (OUTER PERIMETER)
G1 X-10.7560 Y25.3780 F450 (OUTER PERIMETER)
G1 X-10.7570 Y25.3770 F450 (OUTER PERIMETER)
G1 X-10.8010 Y25.3580 F450 (OUTER PERIMETER)
G1 X-10.8010 Y25.3570 F450 (OUTER PERIMETER)
G1 X-11.8400 Y24.8890 F450 (OUTER PERIMETER)
G1 X-11.8920 Y24.8650 F450 (OUTER PERIMETER)
G1 X-11.9850 Y24.8170 F450 (OUTER PERIMETER)
G1 X-12.9770 Y24.3170 F450 (OUTER PERIMETER)
G1 X-14.0430 Y23.7170 F450 (OUTER PERIMETER)
G1 X-14.0940 Y23.6850 F450 (OUTER PERIMETER)
G1 X-15.0360 Y23.0990 F450 (OUTER PERIMETER)
G1 X-15.0820 Y23.0690 F450 (OUTER PERIMETER)
G1 X-15.1790 Y23.0020 F450 (OUTER PERIMETER)
G1 X-16.0980 Y22.3710 F450 (OUTER PERIMETER)
G1 X-17.0730 Y21.6360 F450 (OUTER PERIMETER)
G1 X-17.1340 Y21.5860 F450 (OUTER PERIMETER)
G1 X-17.9830 Y20.8850 F450 (OUTER PERIMETER)
G1 X-18.0200 Y20.8540 F450 (OUTER PERIMETER)
G1 X-18.0380 Y20.8370 F450 (OUTER PERIMETER)
G1 X-18.9480 Y20.0130 F450 (OUTER PERIMETER)
G1 X-19.0050 Y19.9550 F450 (OUTER PERIMETER)
G1 X-19.7960 Y19.1730 F450 (OUTER PERIMETER)
( -------------------- laser_off.txt --- )
/LPW=0               (LASER POWER)
(/)
( -------------------- )
(Laser Tech)
G0 X-19.7173 Y19.1034 Z0.8103 A0.494505 (TRAVEL)
G0 X-19.6387 Y19.0337 Z0.8103 A0.989011 (TRAVEL)
G0 X-19.5600 Y18.9641 Z0.8103 A1.48352 (TRAVEL)
G0 X-19.4814 Y18.8944 Z0.8103 A1.97802 (TRAVEL)
G0 X-19.4027 Y18.8248 Z0.8103 A2.47253 (TRAVEL)
G0 X-19.3240 Y18.7551 Z0.8103 A2.96703 (TRAVEL)
G0 X-19.2454 Y18.6855 Z0.8103 A3.46154 (TRAVEL)
G0 X-19.1667 Y18.6158 Z0.8103 A3.95604 (TRAVEL)
G0 X-19.0881 Y18.5462 Z0.8103 A4.45055 (TRAVEL)
G0 X-19.0094 Y18.4765 Z0.8103 A4.94506 (TRAVEL)
G0 X-18.9307 Y18.4069 Z0.8103 A5.43956 (TRAVEL)
G0 X-18.8521 Y18.3372 Z0.8103 A5.93407 (TRAVEL)
G0 X-18.7734 Y18.2676 Z0.8103 A6.42857 (TRAVEL)
G0 X-18.6948 Y18.1979 Z0.8103 A6.92308 (TRAVEL)
G0 X-18.6161 Y18.1283 Z0.8103 A7.41758 (TRAVEL)
G0 X-18.5375 Y18.0586 Z0.8103 A7.91209 (TRAVEL)
G0 X-18.4588 Y17.9890 Z0.8103 A8.40659 (TRAVEL)
G0 X-18.3801 Y17.9193 Z0.8103 A8.9011 (TRAVEL)
G0 X-18.3015 Y17.8497 Z0.8103 A9.3956 (TRAVEL)
G0 X-18.2228 Y17.7800 Z0.8103 A9.89011 (TRAVEL)
G0 X-18.1442 Y17.7104 Z0.8103 A10.3846 (TRAVEL)
G0 X-18.0655 Y17.6407 Z0.8103 A10.8791 (TRAVEL)
G0 X-17.9868 Y17.5711 Z0.8103 A11.3736 (TRAVEL)
G0 X-17.9082 Y17.5014 Z0.8103 A11.8681 (TRAVEL)
G0 X-17.8295 Y17.4318 Z0.8103 A12.3626 (TRAVEL)
G0 X-17.7509 Y17.3621 Z0.8103 A12.8571 (TRAVEL)
G0 X-17.6722 Y17.2925 Z0.8103 A13.3516 (TRAVEL)
G0 X-17.5935 Y17.2228 Z0.8103 A13.8462 (TRAVEL)
G0 X-17.5149 Y17.1532 Z0.8103 A14.3407 (TRAVEL)
G0 X-17.4362 Y17.0835 Z0.8103 A14.8352 (TRAVEL)
G0 X-17.3576 Y17.0139 Z0.8103 A15.3297 (TRAVEL)
G0 X-17.2789 Y16.9443 Z0.8103 A15.8242 (TRAVEL)
G0 X-17.2002 Y16.8746 Z0.8103 A16.3187 (TRAVEL)
G0 X-17.1216 Y16.8050 Z0.8103 A16.8132 (TRAVEL)
G0 X-17.0429 Y16.7353 Z0.8103 A17.3077 (TRAVEL)
G0 X-16.9643 Y16.6657 Z0.8103 A17.8022 (TRAVEL)
G0 X-16.8856 Y16.5960 Z0.8103 A18.2967 (TRAVEL)
G0 X-16.8069 Y16.5264 Z0.8103 A18.7912 (TRAVEL)
G0 X-16.7283 Y16.4567 Z0.8103 A19.2857 (TRAVEL)
G0 X-16.6496 Y16.3871 Z0.8103 A19.7802 (TRAVEL)
G0 X-16.5710 Y16.3174 Z0.8103 A20.2747 (TRAVEL)
G0 X-16.4923 Y16.2478 Z0.8103 A20.7692 (TRAVEL)
G0 X-16.4136 Y16.1781 Z0.8103 A21.2637 (TRAVEL)
G0 X-16.3350 Y16.1085 Z0.8103 A21.7582 (TRAVEL)
G0 X-16.2563 Y16.0388 Z0.8103 A22.2527 (TRAVEL)
G0 X-16.1777 Y15.9692 Z0.8103 A22.7473 (TRAVEL)
G0 X-16.0990 Y15.8995 Z0.8103 A23.2418 (TRAVEL)
G0 X-16.0204 Y15.8299 Z0.8103 A23.7363 (TRAVEL)
G0 X-15.9417 Y15.7602 Z0.8103 A24.2308 (TRAVEL)
G0 X-15.8630 Y15.6906 Z0.8103 A24.7253 (TRAVEL)
G0 X-15.7844 Y15.6209 Z0.8103 A25.2198 (TRAVEL)
G0 X-15.7057 Y15.5513 Z0.8103 A25.7143 (TRAVEL)
G0 X-15.6271 Y15.4816 Z0.8103 A26.2088 (TRAVEL)
G0 X-15.5484 Y15.4120 Z0.8103 A26.7033 (TRAVEL)
G0 X-15.4697 Y15.3423 Z0.8103 A27.1978 (TRAVEL)
G0 X-15.3911 Y15.2727 Z0.8103 A27.6923 (TRAVEL)
G0 X-15.3124 Y15.2030 Z0.8103 A28.1868 (TRAVEL)
G0 X-15.2338 Y15.1334 Z0.8103 A28.6813 (TRAVEL)
G0 X-15.1551 Y15.0637 Z0.8103 A29.1758 (TRAVEL)
G0 X-15.0764 Y14.9941 Z0.8103 A29.6703 (TRAVEL)
G0 X-14.9978 Y14.9245 Z0.8103 A30.1648 (TRAVEL)
G0 X-14.9191 Y14.8548 Z0.8103 A30.6593 (TRAVEL)
G0 X-14.8405 Y14.7852 Z0.8103 A31.1538 (TRAVEL)
G0 X-14.7618 Y14.7155 Z0.8103 A31.6484 (TRAVEL)
G0 X-14.6831 Y14.6459 Z0.8103 A32.1429 (TRAVEL)
G0 X-14.6045 Y14.5762 Z0.8103 A32.6374 (TRAVEL)
G0 X-14.5258 Y14.5066 Z0.8103 A33.1319 (TRAVEL)
G0 X-14.4472 Y14.4369 Z0.8103 A33.6264 (TRAVEL)
G0 X-14.3685 Y14.3673 Z0.8103 A34.1209 (TRAVEL)
G0 X-14.2898 Y14.2976 Z0.8103 A34.6154 (TRAVEL)
G0 X-14.2112 Y14.2280 Z0.8103 A35.1099 (TRAVEL)
G0 X-14.1325 Y14.1583 Z0.8103 A35.6044 (TRAVEL)
G0 X-14.0539 Y14.0887 Z0.8103 A36.0989 (TRAVEL)
G0 X-13.9752 Y14.0190 Z0.8103 A36.5934 (TRAVEL)
G0 X-13.8965 Y13.9494 Z0.8103 A37.0879 (TRAVEL)
G0 X-13.8179 Y13.8797 Z0.8103 A37.5824 (TRAVEL)
G0 X-13.7392 Y13.8101 Z0.8103 A38.0769 (TRAVEL)
G0 X-13.6606 Y13.7404 Z0.8103 A38.5714 (TRAVEL)
G0 X-13.5819 Y13.6708 Z0.8103 A39.0659 (TRAVEL)
G0 X-13.5033 Y13.6011 Z0.8103 A39.5604 (TRAVEL)
G0 X-13.4246 Y13.5315 Z0.8103 A40.0549 (TRAVEL)
G0 X-13.3459 Y13.4618 Z0.8103 A40.5494 (TRAVEL)
G0 X-13.2673 Y13.3922 Z0.8103 A41.044 (TRAVEL)
G0 X-13.1886 Y13.3225 Z0.8103 A41.5385 (TRAVEL)
G0 X-13.1100 Y13.2529 Z0.8103 A42.033 (TRAVEL)
G0 X-13.0313 Y13.1832 Z0.8103 A42.5275 (TRAVEL)
G0 X-12.9526 Y13.1136 Z0.8103 A43.022 (TRAVEL)
G0 X-12.8740 Y13.0439 Z0.8103 A43.5165 (TRAVEL)
G0 X-12.7953 Y12.9743 Z0.8103 A44.011 (TRAVEL)
G0 X-12.7167 Y12.9046 Z0.8103 A44.5055 (TRAVEL)
G0 X-12.6380 Y12.8350 Z0.8103 A45 C44.5569 (TRAVEL)
( -------------------- laser_on.txt --- )
/LPW=LPWW        (LASER POWER)
( -------------------- )
G1 X-12.0766 Y12.8350 C42.5772 F450 (INNER PERIMETER)
G1 X-11.5151 Y12.8350 C40.5974 F450 (INNER PERIMETER)
G1 X-10.9537 Y12.8350 C38.6177 F450 (INNER PERIMETER)
G1 X-10.3922 Y12.8350 C36.6379 F450 (INNER PERIMETER)
G1 X-9.8308 Y12.8350 C34.6582 F450 (INNER PERIMETER)
G1 X-9.2693 Y12.8350 C32.6784 F450 (INNER PERIMETER)
G1 X-8.7079 Y12.8350 C30.6986 F450 (INNER PERIMETER)
G1 X-8.1464 Y12.8350 C28.7189 F450 (INNER PERIMETER)
G1 X-7.5850 Y12.8350 C26.7391 F450 (INNER PERIMETER)
G1 X-7.0236 Y12.8350 C24.7594 F450 (INNER PERIMETER)
G1 X-6.4621 Y12.8350 C22.7796 F450 (INNER PERIMETER)
G1 X-5.9007 Y12.8350 C20.7999 F450 (INNER PERIMETER)
G1 X-5.3392 Y12.8350 C18.8201 F450 (INNER PERIMETER)
G1 X-4.7778 Y12.8350 C16.8404 F450 (INNER PERIMETER)
G1 X-4.2163 Y12.8350 C14.8606 F450 (INNER PERIMETER)
G1 X-3.6549 Y12.8350 C12.8809 F450 (INNER PERIMETER)
G1 X-3.0934 Y12.8350 C10.9011 F450 (INNER PERIMETER)
G1 X-2.5320 Y12.8350 C8.92136 F450 (INNER PERIMETER)
G1 X-1.9706 Y12.8350 C6.94161 F450 (INNER PERIMETER)
G1 X-1.4091 Y12.8350 C4.96186 F450 (INNER PERIMETER)
G1 X-0.8477 Y12.8350 C2.9821 F450 (INNER PERIMETER)
G1 X-0.2862 Y12.8350 C1.00235 F450 (INNER PERIMETER)
G1 X0.2752 Y12.8350 C-0.977403 F450 (INNER PERIMETER)
G1 X0.8367 Y12.8350 C-2.95716 F450 (INNER PERIMETER)
G1 X1.3981 Y12.8350 C-4.93691 F450 (INNER PERIMETER)
G1 X1.9596 Y12.8350 C-6.91666 F450 (INNER PERIMETER)
G1 X2.5210 Y12.8350 C-8.89642 F450 (INNER PERIMETER)
G1 X3.0824 Y12.8350 C-10.8762 F450 (INNER PERIMETER)
G1 X3.6439 Y12.8350 C-12.8559 F450 (INNER PERIMETER)
G1 X4.2053 Y12.8350 C-14.8357 F450 (INNER PERIMETER)
G1 X4.7668 Y12.8350 C-16.8154 F450 (INNER PERIMETER)
G1 X5.3282 Y12.8350 C-18.7952 F450 (INNER PERIMETER)
G1 X5.8897 Y12.8350 C-20.7749 F450 (INNER PERIMETER)
G1 X6.4511 Y12.8350 C-22.7547 F450 (INNER PERIMETER)
G1 X7.0126 Y12.8350 C-24.7344 F450 (INNER PERIMETER)
G1 X7.5740 Y12.8350 C-26.7142 F450 (INNER PERIMETER)
G1 X8.1354 Y12.8350 C-28.6939 F450 (INNER PERIMETER)
G1 X8.6969 Y12.8350 C-30.6737 F450 (INNER PERIMETER)
G1 X9.2583 Y12.8350 C-32.6535 F450 (INNER PERIMETER)
G1 X9.8198 Y12.8350 C-34.6332 F450 (INNER PERIMETER)
G1 X10.3812 Y12.8350 C-36.613 F450 (INNER PERIMETER)
G1 X10.9427 Y12.8350 C-38.5927 F450 (INNER PERIMETER)
G1 X11.5041 Y12.8350 C-40.5725 F450 (INNER PERIMETER)
G1 X12.0656 Y12.8350 C-42.5522 F450 (INNER PERIMETER)
G1 X12.6270 Y12.8350 C-44.532 F450 (INNER PERIMETER)
G1 X12.6270 Y12.2779 C-46.5068 F450 (INNER PERIMETER)
G1 X12.6270 Y11.7208 C-48.4815 F450 (INNER PERIMETER)
G1 X12.6270 Y11.1637 C-50.4563 F450 (INNER PERIMETER)
G1 X12.6270 Y10.6066 C-52.4311 F450 (INNER PERIMETER)
G1 X12.6270 Y10.0495 C-54.4059 F450 (INNER PERIMETER)
G1 X12.6270 Y9.4924 C-56.3807 F450 (INNER PERIMETER)
G1 X12.6270 Y8.9352 C-58.3554 F450 (INNER PERIMETER)
G1 X12.6270 Y8.3781 C-60.3302 F450 (INNER PERIMETER)
G1 X12.6270 Y7.8210 C-62.305 F450 (INNER PERIMETER)
G1 X12.6270 Y7.2639 C-64.2798 F450 (INNER PERIMETER)
G1 X12.6270 Y6.7068 C-66.2546 F450 (INNER PERIMETER)
G1 X12.6270 Y6.1497 C-68.2294 F450 (INNER PERIMETER)
G1 X12.6270 Y5.5926 C-70.2041 F450 (INNER PERIMETER)
G1 X12.6270 Y5.0355 C-72.1789 F450 (INNER PERIMETER)
G1 X12.6270 Y4.4784 C-74.1537 F450 (INNER PERIMETER)
G1 X12.6270 Y3.9213 C-76.1285 F450 (INNER PERIMETER)
G1 X12.6270 Y3.3641 C-78.1033 F450 (INNER PERIMETER)
G1 X12.6270 Y2.8070 C-80.0781 F450 (INNER PERIMETER)
G1 X12.6270 Y2.2499 C-82.0528 F450 (INNER PERIMETER)
G1 X12.6270 Y1.6928 C-84.0276 F450 (INNER PERIMETER)
G1 X12.6270 Y1.1357 C-86.0024 F450 (INNER PERIMETER)
G1 X12.6270 Y0.5786 C-87.9772 F450 (INNER PERIMETER)
G1 X12.6270 Y0.0215 C-89.952 F450 (INNER PERIMETER)
G1 X12.6270 Y-0.5356 C-91.9267 F450 (INNER PERIMETER)
G1 X12.6270 Y-1.0927 C-93.9015 F450 (INNER PERIMETER)
G1 X12.6270 Y-1.6498 C-95.8763 F450 (INNER PERIMETER)
G1 X12.6270 Y-2.2069 C-97.8511 F450 (INNER PERIMETER)
G1 X12.6270 Y-2.7640 C-99.8259 F450 (INNER PERIMETER)
G1 X12.6270 Y-3.3211 C-101.801 F450 (INNER PERIMETER)
G1 X12.6270 Y-3.8783 C-103.775 F450 (INNER PERIMETER)
G1 X12.6270 Y-4.4354 C-105.75 F450 (INNER PERIMETER)
G1 X12.6270 Y-4.9925 C-107.725 F450 (INNER PERIMETER)
G1 X12.6270 Y-5.5496 C-109.7 F450 (INNER PERIMETER)
G1 X12.6270 Y-6.1067 C-111.675 F450 (INNER PERIMETER)
G1 X12.6270 Y-6.6638 C-113.649 F450 (INNER PERIMETER)
G1 X12.6270 Y-7.2209 C-115.624 F450 (INNER PERIMETER)
G1 X12.6270 Y-7.7780 C-117.599 F450 (INNER PERIMETER)
G1 X12.6270 Y-8.3351 C-119.574 F450 (INNER PERIMETER)
G1 X12.6270 Y-8.8922 C-121.548 F450 (INNER PERIMETER)
G1 X12.6270 Y-9.4494 C-123.523 F450 (INNER PERIMETER)
G1 X12.6270 Y-10.0065 C-125.498 F450 (INNER PERIMETER)
G1 X12.6270 Y-10.5636 C-127.473 F450 (INNER PERIMETER)
G1 X12.6270 Y-11.1207 C-129.448 F450 (INNER PERIMETER)
G1 X12.6270 Y-11.6778 C-131.422 F450 (INNER PERIMETER)
G1 X12.6270 Y-12.2349 C-133.397 F450 (INNER PERIMETER)
G1 X12.6270 Y-12.7920 C-135.372 F450 (INNER PERIMETER)
G1 X12.0656 Y-12.7920 C-137.356 F450 (INNER PERIMETER)
G1 X11.5041 Y-12.7920 C-139.34 F450 (INNER PERIMETER)
G1 X10.9427 Y-12.7920 C-141.324 F450 (INNER PERIMETER)
G1 X10.3812 Y-12.7920 C-143.308 F450 (INNER PERIMETER)
G1 X9.8198 Y-12.7920 C-145.292 F450 (INNER PERIMETER)
G1 X9.2583 Y-12.7920 C-147.276 F450 (INNER PERIMETER)
G1 X8.6969 Y-12.7920 C-149.26 F450 (INNER PERIMETER)
G1 X8.1354 Y-12.7920 C-151.244 F450 (INNER PERIMETER)
G1 X7.5740 Y-12.7920 C-153.228 F450 (INNER PERIMETER)
G1 X7.0126 Y-12.7920 C-155.212 F450 (INNER PERIMETER)
G1 X6.4511 Y-12.7920 C-157.196 F450 (INNER PERIMETER)
G1 X5.8897 Y-12.7920 C-159.18 F450 (INNER PERIMETER)
G1 X5.3282 Y-12.7920 C-161.164 F450 (INNER PERIMETER)
G1 X4.7668 Y-12.7920 C-163.148 F450 (INNER PERIMETER)
G1 X4.2053 Y-12.7920 C-165.132 F450 (INNER PERIMETER)
G1 X3.6439 Y-12.7920 C-167.116 F450 (INNER PERIMETER)
G1 X3.0824 Y-12.7920 C-169.1 F450 (INNER PERIMETER)
G1 X2.5210 Y-12.7920 C-171.084 F450 (INNER PERIMETER)
G1 X1.9596 Y-12.7920 C-173.068 F450 (INNER PERIMETER)
G1 X1.3981 Y-12.7920 C-175.052 F450 (INNER PERIMETER)
G1 X0.8367 Y-12.7920 C-177.036 F450 (INNER PERIMETER)
G1 X0.2752 Y-12.7920 C-179.021 F450 (INNER PERIMETER)
G1 X-0.2862 Y-12.7920 C-181.005 F450 (INNER PERIMETER)
G1 X-0.8477 Y-12.7920 C-182.989 F450 (INNER PERIMETER)
G1 X-1.4091 Y-12.7920 C-184.973 F450 (INNER PERIMETER)
G1 X-1.9706 Y-12.7920 C-186.957 F450 (INNER PERIMETER)
G1 X-2.5320 Y-12.7920 C-188.941 F450 (INNER PERIMETER)
G1 X-3.0934 Y-12.7920 C-190.925 F450 (INNER PERIMETER)
G1 X-3.6549 Y-12.7920 C-192.909 F450 (INNER PERIMETER)
G1 X-4.2163 Y-12.7920 C-194.893 F450 (INNER PERIMETER)
G1 X-4.7778 Y-12.7920 C-196.877 F450 (INNER PERIMETER)
G1 X-5.3392 Y-12.7920 C-198.861 F450 (INNER PERIMETER)
G1 X-5.9007 Y-12.7920 C-200.845 F450 (INNER PERIMETER)
G1 X-6.4621 Y-12.7920 C-202.829 F450 (INNER PERIMETER)
G1 X-7.0236 Y-12.7920 C-204.813 F450 (INNER PERIMETER)
G1 X-7.5850 Y-12.7920 C-206.797 F450 (INNER PERIMETER)
G1 X-8.1464 Y-12.7920 C-208.781 F450 (INNER PERIMETER)
G1 X-8.7079 Y-12.7920 C-210.765 F450 (INNER PERIMETER)
G1 X-9.2693 Y-12.7920 C-212.749 F450 (INNER PERIMETER)
G1 X-9.8308 Y-12.7920 C-214.733 F450 (INNER PERIMETER)
G1 X-10.3922 Y-12.7920 C-216.717 F450 (INNER PERIMETER)
G1 X-10.9537 Y-12.7920 C-218.701 F450 (INNER PERIMETER)
G1 X-11.5151 Y-12.7920 C-220.685 F450 (INNER PERIMETER)
G1 X-12.0766 Y-12.7920 C-222.669 F450 (INNER PERIMETER)
G1 X-12.6380 Y-12.7920 C-224.653 F450 (INNER PERIMETER)
G1 X-12.6380 Y-12.2349 C-226.627 F450 (INNER PERIMETER)
G1 X-12.6380 Y-11.6778 C-228.601 F450 (INNER PERIMETER)
G1 X-12.6380 Y-11.1207 C-230.574 F450 (INNER PERIMETER)
G1 X-12.6380 Y-10.5636 C-232.548 F450 (INNER PERIMETER)
G1 X-12.6380 Y-10.0065 C-234.522 F450 (INNER PERIMETER)
G1 X-12.6380 Y-9.4494 C-236.495 F450 (INNER PERIMETER)
G1 X-12.6380 Y-8.8922 C-238.469 F450 (INNER PERIMETER)
G1 X-12.6380 Y-8.3351 C-240.443 F450 (INNER PERIMETER)
G1 X-12.6380 Y-7.7780 C-242.416 F450 (INNER PERIMETER)
G1 X-12.6380 Y-7.2209 C-244.39 F450 (INNER PERIMETER)
G1 X-12.6380 Y-6.6638 C-246.364 F450 (INNER PERIMETER)
G1 X-12.6380 Y-6.1067 C-248.337 F450 (INNER PERIMETER)
G1 X-12.6380 Y-5.5496 C-250.311 F450 (INNER PERIMETER)
G1 X-12.6380 Y-4.9925 C-252.285 F450 (INNER PERIMETER)
G1 X-12.6380 Y-4.4354 C-254.259 F450 (INNER PERIMETER)
G1 X-12.6380 Y-3.8783 C-256.232 F450 (INNER PERIMETER)
G1 X-12.6380 Y-3.3211 C-258.206 F450 (INNER PERIMETER)
G1 X-12.6380 Y-2.7640 C-260.18 F450 (INNER PERIMETER)
G1 X-12.6380 Y-2.2069 C-262.153 F450 (INNER PERIMETER)
G1 X-12.6380 Y-1.6498 C-264.127 F450 (INNER PERIMETER)
G1 X-12.6380 Y-1.0927 C-266.101 F450 (INNER PERIMETER)
G1 X-12.6380 Y-0.5356 C-268.074 F450 (INNER PERIMETER)
G1 X-12.6380 Y0.0215 C-270.048 F450 (INNER PERIMETER)
G1 X-12.6380 Y0.5786 C-272.022 F450 (INNER PERIMETER)
G1 X-12.6380 Y1.1357 C-273.996 F450 (INNER PERIMETER)
G1 X-12.6380 Y1.6928 C-275.969 F450 (INNER PERIMETER)
G1 X-12.6380 Y2.2499 C-277.943 F450 (INNER PERIMETER)
G1 X-12.6380 Y2.8070 C-279.917 F450 (INNER PERIMETER)
G1 X-12.6380 Y3.3641 C-281.89 F450 (INNER PERIMETER)
G1 X-12.6380 Y3.9213 C-283.864 F450 (INNER PERIMETER)
G1 X-12.6380 Y4.4784 C-285.838 F450 (INNER PERIMETER)
G1 X-12.6380 Y5.0355 C-287.811 F450 (INNER PERIMETER)
G1 X-12.6380 Y5.5926 C-289.785 F450 (INNER PERIMETER)
G1 X-12.6380 Y6.1497 C-291.759 F450 (INNER PERIMETER)
G1 X-12.6380 Y6.7068 C-293.733 F450 (INNER PERIMETER)
G1 X-12.6380 Y7.2639 C-295.706 F450 (INNER PERIMETER)
G1 X-12.6380 Y7.8210 C-297.68 F450 (INNER PERIMETER)
G1 X-12.6380 Y8.3781 C-299.654 F450 (INNER PERIMETER)
G1 X-12.6380 Y8.9352 C-301.627 F450 (INNER PERIMETER)
G1 X-12.6380 Y9.4924 C-303.601 F450 (INNER PERIMETER)
G1 X-12.6380 Y10.0495 C-305.575 F450 (INNER PERIMETER)
G1 X-12.6380 Y10.6066 C-307.548 F450 (INNER PERIMETER)
G1 X-12.6380 Y11.1637 C-309.522 F450 (INNER PERIMETER)
G1 X-12.6380 Y11.7208 C-311.496 F450 (INNER PERIMETER)
G1 X-12.6380 Y12.2779 C-313.47 F450 (INNER PERIMETER)
G1 X-12.6380 Y12.8350 C-315.443 F450 (INNER PERIMETER)
( -------------------- laser_off.txt --- )
/LPW=0               (LASER POWER)
(/)
( -------------------- )
(Laser Tech)
G0 X-12.6655 Y12.8393 Z0.8103 A44.5055 (TRAVEL)
G0 X-12.6929 Y12.8435 Z0.8103 A44.011 (TRAVEL)
G0 X-12.7204 Y12.8478 Z0.8103 A43.5165 (TRAVEL)
G0 X-12.7479 Y12.8521 Z0.8103 A43.022 (TRAVEL)
G0 X-12.7754 Y12.8564 Z0.8103 A42.5275 (TRAVEL)
G0 X-12.8028 Y12.8606 Z0.8103 A42.033 (TRAVEL)
G0 X-12.8303 Y12.8649 Z0.8103 A41.5385 (TRAVEL)
G0 X-12.8578 Y12.8692 Z0.8103 A41.044 (TRAVEL)
G0 X-12.8853 Y12.8735 Z0.8103 A40.5494 (TRAVEL)
G0 X-12.9127 Y12.8777 Z0.8103 A40.0549 (TRAVEL)
G0 X-12.9402 Y12.8820 Z0.8103 A39.5604 (TRAVEL)
G0 X-12.9677 Y12.8863 Z0.8103 A39.0659 (TRAVEL)
G0 X-12.9951 Y12.8906 Z0.8103 A38.5714 (TRAVEL)
G0 X-13.0226 Y12.8948 Z0.8103 A38.0769 (TRAVEL)
G0 X-13.0501 Y12.8991 Z0.8103 A37.5824 (TRAVEL)
G0 X-13.0776 Y12.9034 Z0.8103 A37.0879 (TRAVEL)
G0 X-13.1050 Y12.9077 Z0.8103 A36.5934 (TRAVEL)
G0 X-13.1325 Y12.9119 Z0.8103 A36.0989 (TRAVEL)
G0 X-13.1600 Y12.9162 Z0.8103 A35.6044 (TRAVEL)
G0 X-13.1874 Y12.9205 Z0.8103 A35.1099 (TRAVEL)
G0 X-13.2149 Y12.9248 Z0.8103 A34.6154 (TRAVEL)
G0 X-13.2424 Y12.9290 Z0.8103 A34.1209 (TRAVEL)
G0 X-13.2699 Y12.9333 Z0.8103 A33.6264 (TRAVEL)
G0 X-13.2973 Y12.9376 Z0.8103 A33.1319 (TRAVEL)
G0 X-13.3248 Y12.9419 Z0.8103 A32.6374 (TRAVEL)
G0 X-13.3523 Y12.9461 Z0.8103 A32.1429 (TRAVEL)
G0 X-13.3798 Y12.9504 Z0.8103 A31.6484 (TRAVEL)
G0 X-13.4072 Y12.9547 Z0.8103 A31.1538 (TRAVEL)
G0 X-13.4347 Y12.9590 Z0.8103 A30.6593 (TRAVEL)
G0 X-13.4622 Y12.9632 Z0.8103 A30.1648 (TRAVEL)
G0 X-13.4896 Y12.9675 Z0.8103 A29.6703 (TRAVEL)
G0 X-13.5171 Y12.9718 Z0.8103 A29.1758 (TRAVEL)
G0 X-13.5446 Y12.9761 Z0.8103 A28.6813 (TRAVEL)
G0 X-13.5721 Y12.9803 Z0.8103 A28.1868 (TRAVEL)
G0 X-13.5995 Y12.9846 Z0.8103 A27.6923 (TRAVEL)
G0 X-13.6270 Y12.9889 Z0.8103 A27.1978 (TRAVEL)
G0 X-13.6545 Y12.9932 Z0.8103 A26.7033 (TRAVEL)
G0 X-13.6820 Y12.9974 Z0.8103 A26.2088 (TRAVEL)
G0 X-13.7094 Y13.0017 Z0.8103 A25.7143 (TRAVEL)
G0 X-13.7369 Y13.0060 Z0.8103 A25.2198 (TRAVEL)
G0 X-13.7644 Y13.0103 Z0.8103 A24.7253 (TRAVEL)
G0 X-13.7918 Y13.0145 Z0.8103 A24.2308 (TRAVEL)
G0 X-13.8193 Y13.0188 Z0.8103 A23.7363 (TRAVEL)
G0 X-13.8468 Y13.0231 Z0.8103 A23.2418 (TRAVEL)
G0 X-13.8743 Y13.0274 Z0.8103 A22.7473 (TRAVEL)
G0 X-13.9017 Y13.0316 Z0.8103 A22.2527 (TRAVEL)
G0 X-13.9292 Y13.0359 Z0.8103 A21.7582 (TRAVEL)
G0 X-13.9567 Y13.0402 Z0.8103 A21.2637 (TRAVEL)
G0 X-13.9842 Y13.0445 Z0.8103 A20.7692 (TRAVEL)
G0 X-14.0116 Y13.0487 Z0.8103 A20.2747 (TRAVEL)
G0 X-14.0391 Y13.0530 Z0.8103 A19.7802 (TRAVEL)
G0 X-14.0666 Y13.0573 Z0.8103 A19.2857 (TRAVEL)
G0 X-14.0940 Y13.0616 Z0.8103 A18.7912 (TRAVEL)
G0 X-14.1215 Y13.0658 Z0.8103 A18.2967 (TRAVEL)
G0 X-14.1490 Y13.0701 Z0.8103 A17.8022 (TRAVEL)
G0 X-14.1765 Y13.0744 Z0.8103 A17.3077 (TRAVEL)
G0 X-14.2039 Y13.0787 Z0.8103 A16.8132 (TRAVEL)
G0 X-14.2314 Y13.0829 Z0.8103 A16.3187 (TRAVEL)
G0 X-14.2589 Y13.0872 Z0.8103 A15.8242 (TRAVEL)
G0 X-14.2864 Y13.0915 Z0.8103 A15.3297 (TRAVEL)
G0 X-14.3138 Y13.0958 Z0.8103 A14.8352 (TRAVEL)
G0 X-14.3413 Y13.1000 Z0.8103 A14.3407 (TRAVEL)
G0 X-14.3688 Y13.1043 Z0.8103 A13.8462 (TRAVEL)
G0 X-14.3962 Y13.1086 Z0.8103 A13.3516 (TRAVEL)
G0 X-14.4237 Y13.1129 Z0.8103 A12.8571 (TRAVEL)
G0 X-14.4512 Y13.1171 Z0.8103 A12.3626 (TRAVEL)
G0 X-14.4787 Y13.1214 Z0.8103 A11.8681 (TRAVEL)
G0 X-14.5061 Y13.1257 Z0.8103 A11.3736 (TRAVEL)
G0 X-14.5336 Y13.1300 Z0.8103 A10.8791 (TRAVEL)
G0 X-14.5611 Y13.1342 Z0.8103 A10.3846 (TRAVEL)
G0 X-14.5885 Y13.1385 Z0.8103 A9.89011 (TRAVEL)
G0 X-14.6160 Y13.1428 Z0.8103 A9.3956 (TRAVEL)
G0 X-14.6435 Y13.1471 Z0.8103 A8.9011 (TRAVEL)
G0 X-14.6710 Y13.1513 Z0.8103 A8.40659 (TRAVEL)
G0 X-14.6984 Y13.1556 Z0.8103 A7.91209 (TRAVEL)
G0 X-14.7259 Y13.1599 Z0.8103 A7.41758 (TRAVEL)
G0 X-14.7534 Y13.1642 Z0.8103 A6.92308 (TRAVEL)
G0 X-14.7809 Y13.1684 Z0.8103 A6.42857 (TRAVEL)
G0 X-14.8083 Y13.1727 Z0.8103 A5.93407 (TRAVEL)
G0 X-14.8358 Y13.1770 Z0.8103 A5.43956 (TRAVEL)
G0 X-14.8633 Y13.1813 Z0.8103 A4.94505 (TRAVEL)
G0 X-14.8907 Y13.1855 Z0.8103 A4.45055 (TRAVEL)
G0 X-14.9182 Y13.1898 Z0.8103 A3.95604 (TRAVEL)
G0 X-14.9457 Y13.1941 Z0.8103 A3.46154 (TRAVEL)
G0 X-14.9732 Y13.1984 Z0.8103 A2.96703 (TRAVEL)
G0 X-15.0006 Y13.2026 Z0.8103 A2.47253 (TRAVEL)
G0 X-15.0281 Y13.2069 Z0.8103 A1.97802 (TRAVEL)
G0 X-15.0556 Y13.2112 Z0.8103 A1.48352 (TRAVEL)
G0 X-15.0831 Y13.2154 Z0.8103 A0.98901 (TRAVEL)
G0 X-15.1105 Y13.2197 Z0.8103 A0.494507 (TRAVEL)
G0 X-15.1380 Y13.2240 Z0.8103 A0 (TRAVEL)
( -------------------- laser_on.txt --- )
/LPW=LPWW        (LASER POWER)
( -------------------- )
G1 F900 X-21.2770 Y13.2240 Z0.8103 (INFILL)
G1 F900 X-22.2140 Y11.5740 (INFILL)
G1 F900 X-15.1380 Y11.5740 (INFILL)
G1 F900 X-15.1380 Y9.9240 (INFILL)
G1 F900 X-23.0010 Y9.9240 (INFILL)
G1 F900 X-23.6400 Y8.2740 (INFILL)
G1 F900 X-15.1380 Y8.2740 (INFILL)
G1 F900 X-15.1380 Y6.6240 (INFILL)
G1 F900 X-24.1540 Y6.6240 (INFILL)
G1 F900 X-24.5460 Y4.9740 (INFILL)
G1 F900 X-15.1380 Y4.9740 (INFILL)
G1 F900 X-15.1380 Y3.3240 (INFILL)
G1 F900 X-24.8210 Y3.3240 (INFILL)
G1 F900 X-24.9850 Y1.6740 (INFILL)
G1 F900 X-15.1380 Y1.6740 (INFILL)
G1 F900 X-15.1380 Y0.0240 (INFILL)
G1 F900 X-25.0400 Y0.0240 (INFILL)
G1 F900 X-24.9870 Y-1.6260 (INFILL)
G1 F900 X-15.1380 Y-1.6260 (INFILL)
G1 F900 X-15.1380 Y-3.2760 (INFILL)
G1 F900 X-24.8210 Y-3.2760 (INFILL)
G1 F900 X-24.5450 Y-4.9260 (INFILL)
G1 F900 X-15.1380 Y-4.9260 (INFILL)
G1 F900 X-15.1380 Y-6.5760 (INFILL)
G1 F900 X-24.1570 Y-6.5760 (INFILL)
G1 F900 X-23.6430 Y-8.2260 (INFILL)
G1 F900 X-15.1380 Y-8.2260 (INFILL)
G1 F900 X-15.1380 Y-9.8760 (INFILL)
G1 F900 X-23.0000 Y-9.8760 (INFILL)
G1 F900 X-22.2230 Y-11.5260 (INFILL)
G1 F900 X-15.1380 Y-11.5260 (INFILL)
G1 F900 X-15.1380 Y-13.1760 (INFILL)
G1 F900 X-21.2800 Y-13.1760 (INFILL)
G1 F900 X-20.1590 Y-14.8260 (INFILL)
G1 F900 X-15.1380 Y-14.8260 (INFILL)
( -------------------- laser_off.txt --- )
/LPW=0               (LASER POWER)
(/)
( -------------------- )
(Laser Tech)
G0 X-17.2490 Y-18.1260 (TRAVEL)
( -------------------- laser_on.txt --- )
/LPW=LPWW        (LASER POWER)
( -------------------- )
G1 F900 X17.2380 Y-18.1260 (INFILL)
( -------------------- laser_off.txt --- )
/LPW=0               (LASER POWER)
(/)
( -------------------- )
(Laser Tech)
G0 X18.8240 Y-16.4760 (TRAVEL)
( -------------------- laser_on.txt --- )
/LPW=LPWW        (LASER POWER)
( -------------------- )
G1 F900 X-18.8330 Y-16.4760 (INFILL)
( -------------------- laser_off.txt --- )
/LPW=0               (LASER POWER)
(/)
( -------------------- )
(Laser Tech)
G0 X-15.3280 Y-19.7760 (TRAVEL)
( -------------------- laser_on.txt --- )
/LPW=LPWW        (LASER POWER)
( -------------------- )
G1 F900 X15.3180 Y-19.7760 (INFILL)
( -------------------- laser_off.txt --- )
/LPW=0               (LASER POWER)
(/)
( -------------------- )
(Laser Tech)
G0 X12.8980 Y-21.4260 (TRAVEL)
( -------------------- laser_on.txt --- )
/LPW=LPWW        (LASER POWER)
( -------------------- )
G1 F900 X-12.9170 Y-21.4260 (INFILL)
( -------------------- laser_off.txt --- )
/LPW=0               (LASER POWER)
(/)
( -------------------- )
(Laser Tech)
G0 X-9.6590 Y-23.0760 (TRAVEL)
( -------------------- laser_on.txt --- )
/LPW=LPWW        (LASER POWER)
( -------------------- )
G1 F900 X9.6510 Y-23.0760 (INFILL)
( -------------------- laser_off.txt --- )
/LPW=0               (LASER POWER)
(/)
( -------------------- )
(Laser Tech)
G0 X3.8070 Y-24.7260 (TRAVEL)
( -------------------- laser_on.txt --- )
/LPW=LPWW        (LASER POWER)
( -------------------- )
G1 F900 X-3.7950 Y-24.7260 (INFILL)
( -------------------- laser_off.txt --- )
/LPW=0               (LASER POWER)
(/)
( -------------------- )
(Laser Tech)
G0 X15.1270 Y-14.8260 (TRAVEL)
( -------------------- laser_on.txt --- )
/LPW=LPWW        (LASER POWER)
( -------------------- )
G1 F900 X20.1510 Y-14.8260 (INFILL)
G1 F900 X21.2670 Y-13.1760 (INFILL)
G1 F900 X15.1270 Y-13.1760 (INFILL)
G1 F900 X15.1270 Y-11.5260 (INFILL)
G1 F900 X22.2130 Y-11.5260 (INFILL)
G1 F900 X22.9880 Y-9.8760 (INFILL)
G1 F900 X15.1270 Y-9.8760 (INFILL)
G1 F900 X15.1270 Y-8.2260 (INFILL)
G1 F900 X23.6330 Y-8.2260 (INFILL)
G1 F900 X24.1440 Y-6.5760 (INFILL)
G1 F900 X15.1270 Y-6.5760 (INFILL)
G1 F900 X15.1270 Y-4.9260 (INFILL)
G1 F900 X24.5360 Y-4.9260 (INFILL)
G1 F900 X24.8120 Y-3.2760 (INFILL)
G1 F900 X15.1270 Y-3.2760 (INFILL)
G1 F900 X15.1270 Y-1.6260 (INFILL)
G1 F900 X24.9750 Y-1.6260 (INFILL)
G1 F900 X25.0340 Y0.0240 (INFILL)
G1 F900 X15.1270 Y0.0240 (INFILL)
G1 F900 X15.1270 Y1.6740 (INFILL)
G1 F900 X24.9750 Y1.6740 (INFILL)
G1 F900 X24.8120 Y3.3240 (INFILL)
G1 F900 X15.1270 Y3.3240 (INFILL)
G1 F900 X15.1270 Y4.9740 (INFILL)
G1 F900 X24.5350 Y4.9740 (INFILL)
G1 F900 X24.1430 Y6.6240 (INFILL)
G1 F900 X15.1270 Y6.6240 (INFILL)
G1 F900 X15.1270 Y8.2740 (INFILL)
G1 F900 X23.6300 Y8.2740 (INFILL)
G1 F900 X22.9900 Y9.9240 (INFILL)
G1 F900 X15.1270 Y9.9240 (INFILL)
G1 F900 X15.1270 Y11.5740 (INFILL)
G1 F900 X22.2000 Y11.5740 (INFILL)
G1 F900 X21.2660 Y13.2240 (INFILL)
G1 F900 X15.1270 Y13.2240 (INFILL)
G1 F900 X15.1270 Y14.8740 (INFILL)
G1 F900 X20.1540 Y14.8740 (INFILL)
( -------------------- laser_off.txt --- )
/LPW=0               (LASER POWER)
(/)
( -------------------- )
(Laser Tech)
G0 X18.8270 Y16.5240 (TRAVEL)
( -------------------- laser_on.txt --- )
/LPW=LPWW        (LASER POWER)
( -------------------- )
G1 F900 X-18.8350 Y16.5240 (INFILL)
( -------------------- laser_off.txt --- )
/LPW=0               (LASER POWER)
(/)
( -------------------- )
(Laser Tech)
G0 X-20.1630 Y14.8740 (TRAVEL)
( -------------------- laser_on.txt --- )
/LPW=LPWW        (LASER POWER)
( -------------------- )
G1 F900 X-15.1380 Y14.8740 (INFILL)
( -------------------- laser_off.txt --- )
/LPW=0               (LASER POWER)
(/)
( -------------------- )
(Laser Tech)
G0 X-17.2500 Y18.1740 (TRAVEL)
( -------------------- laser_on.txt --- )
/LPW=LPWW        (LASER POWER)
( -------------------- )
G1 F900 X17.2400 Y18.1740 (INFILL)
( -------------------- laser_off.txt --- )
/LPW=0               (LASER POWER)
(/)
( -------------------- )
(Laser Tech)
G0 X15.3120 Y19.8240 (TRAVEL)
( -------------------- laser_on.txt --- )
/LPW=LPWW        (LASER POWER)
( -------------------- )
G1 F900 X-15.3260 Y19.8240 (INFILL)
( -------------------- laser_off.txt --- )
/LPW=0               (LASER POWER)
(/)
( -------------------- )
(Laser Tech)
G0 X-12.9150 Y21.4740 (TRAVEL)
( -------------------- laser_on.txt --- )
/LPW=LPWW        (LASER POWER)
( -------------------- )
G1 F900 X12.9040 Y21.4740 (INFILL)
( -------------------- laser_off.txt --- )
/LPW=0               (LASER POWER)
(/)
( -------------------- )
(Laser Tech)
G0 X9.6460 Y23.1240 (TRAVEL)
( -------------------- laser_on.txt --- )
/LPW=LPWW        (LASER POWER)
( -------------------- )
G1 F900 X-9.6580 Y23.1240 (INFILL)
( -------------------- laser_off.txt --- )
/LPW=0               (LASER POWER)
(/)
( -------------------- )
(Laser Tech)
G0 X-3.7590 Y24.7740 (TRAVEL)
( -------------------- laser_on.txt --- )
/LPW=LPWW        (LASER POWER)
( -------------------- )
G1 F900 X3.7440 Y24.7740 (INFILL)
( -------------------- laser_off.txt --- )
/LPW=0               (LASER POWER)
(/)
( -------------------- )
(Laser Tech)

(BEGINNING LAYER: 3)
( -------------------- laser_on.txt --- )

(Nozzle 0)
G0 X150 Y-150 (TRAVEL)
C0
M671
VC1000 = VC1000 + 1
G04 F=60 (DWELL 60S)
C-315.443
G0 X-19.5000 Y18.9250 Z1.5703 (TRAVEL)
( -------------------- laser_on.txt --- )
/LPW=LPWW        (LASER POWER)
( -------------------- )
G1 X-19.5110 Y18.9130 F450 (OUTER PERIMETER)
G1 X-19.6400 Y18.7770 F450 (OUTER PERIMETER)
G1 X-20.3120 Y18.0500 F450 (OUTER PERIMETER)
G1 X-20.3530 Y18.0040 F450 (OUTER PERIMETER)
G1 X-20.3860 Y17.9660 F450 (OUTER PERIMETER)
G1 X-20.4920 Y17.8380 F450 (OUTER PERIMETER)
G1 X-21.1410 Y17.0710 F450 (OUTER PERIMETER)
G1 X-21.1520 Y17.0570 F450 (OUTER PERIMETER)
G1 X-21.2610 Y16.9140 F450 (OUTER PERIMETER)
G1 X-21.8500 Y16.1510 F450 (OUTER PERIMETER)
G1 X-21.9680 Y15.9860 F450 (OUTER PERIMETER)
G1 X-22.5410 Y15.1710 F450 (OUTER PERIMETER)
G1 X-22.5560 Y15.1490 F450 (OUTER PERIMETER)
G1 X-22.6230 Y15.0460 F450 (OUTER PERIMETER)
G1 X-22.6860 Y14.9450 F450 (OUTER PERIMETER)
G1 X-23.2230 Y14.1040 F450 (OUTER PERIMETER)
G1 X-23.2270 Y14.0970 F450 (OUTER PERIMETER)
G1 X-23.3290 Y13.9190 F450 (OUTER PERIMETER)
G1 X-23.8150 Y13.0770 F450 (OUTER PERIMETER)
G1 X-23.9040 Y12.9090 F450 (OUTER PERIMETER)
G1 X-24.3660 Y12.0190 F450 (OUTER PERIMETER)
G1 X-24.4280 Y11.8880 F450 (OUTER PERIMETER)
G1 X-24.8490 Y10.9820 F450 (OUTER PERIMETER)
G1 X-24.8930 Y10.8840 F450 (OUTER PERIMETER)
G1 X-24.9020 Y10.8610 F450 (OUTER PERIMETER)
G1 X-24.9730 Y10.6870 F450 (OUTER PERIMETER)
G1 X-25.3520 Y9.7630 F450 (OUTER PERIMETER)
G1 X-25.4110 Y9.6000 F450 (OUTER PERIMETER)
G1 X-25.7480 Y8.6610 F450 (OUTER PERIMETER)
G1 X-25.7970 Y8.5090 F450 (OUTER PERIMETER)
G1 X-25.7980 Y8.5090 F450 (OUTER PERIMETER)
G1 X-26.0920 Y7.5600 F450 (OUTER PERIMETER)
G1 X-26.1190 Y7.4690 F450 (OUTER PERIMETER)
G1 X-26.1340 Y7.4130 F450 (OUTER PERIMETER)
G1 X-26.1720 Y7.2620 F450 (OUTER PERIMETER)
G1 X-26.4230 Y6.3060 F450 (OUTER PERIMETER)
G1 X-26.4620 Y6.1210 F450 (OUTER PERIMETER)
G1 X-26.6710 Y5.1500 F450 (OUTER PERIMETER)
G1 X-26.6990 Y4.9900 F450 (OUTER PERIMETER)
G1 X-26.7000 Y4.9900 F450 (OUTER PERIMETER)
G1 X-26.8640 Y4.0200 F450 (OUTER PERIMETER)
G1 X-26.8850 Y3.8730 F450 (OUTER PERIMETER)
G1 X-26.9030 Y3.7130 F450 (OUTER PERIMETER)
G1 X-27.0260 Y2.7160 F450 (OUTER PERIMETER)
G1 X-27.0400 Y2.5280 F450 (OUTER PERIMETER)
G1 X-27.1190 Y1.5170 F450 (OUTER PERIMETER)
G1 X-27.1250 Y1.3690 F450 (OUTER PERIMETER)
G1 X-27.1570 Y0.3930 F450 (OUTER PERIMETER)
G1 X-27.1580 Y0.3430 F450 (OUTER PERIMETER)
G1 X-27.1580 Y0.2560 F450 (OUTER PERIMETER)
G1 X-27.1550 Y0.0950 F450 (OUTER PERIMETER)
G1 X-27.1440 Y-0.9030 F450 (OUTER PERIMETER)
G1 X-27.1430 Y-0.9240 F450 (OUTER PERIMETER)
G1 X-27.1320 Y-1.1010 F450 (OUTER PERIMETER)
G1 X-27.0770 Y-2.0930 F450 (OUTER PERIMETER)
G1 X-27.0620 Y-2.2540 F450 (OUTER PERIMETER)
G1 X-26.9640 Y-3.2270 F450 (OUTER PERIMETER)
G1 X-26.9550 Y-3.3020 F450 (OUTER PERIMETER)
G1 X-26.9560 Y-3.3020 F450 (OUTER PERIMETER)
G1 X-26.9470 Y-3.3710 F450 (OUTER PERIMETER)
G1 X-26.9230 Y-3.5210 F450 (OUTER PERIMETER)
G1 X-26.7780 Y-4.5140 F450 (OUTER PERIMETER)
G1 X-26.7370 Y-4.7220 F450 (OUTER PERIMETER)
G1 X-26.5530 Y-5.6860 F450 (OUTER PERIMETER)
G1 X-26.5130 Y-5.8540 F450 (OUTER PERIMETER)
G1 X-26.2790 Y-6.8380 F450 (OUTER PERIMETER)
G1 X-26.2750 Y-6.8520 F450 (OUTER PERIMETER)
G1 X-26.2760 Y-6.8520 F450 (OUTER PERIMETER)
G1 X-26.2450 Y-6.9650 F450 (OUTER PERIMETER)
G1 X-26.2440 Y-6.9650 F450 (OUTER PERIMETER)
G1 X-25.9740 Y-7.9110 F450 (OUTER PERIMETER)
G1 X-25.9370 Y-8.0330 F450 (OUTER PERIMETER)
G1 X-25.9380 Y-8.0330 F450 (OUTER PERIMETER)
G1 X-25.9300 Y-8.0580 F450 (OUTER PERIMETER)
G1 X-25.8670 Y-8.2440 F450 (OUTER PERIMETER)
G1 X-25.5500 Y-9.1870 F450 (OUTER PERIMETER)
G1 X-25.4890 Y-9.3470 F450 (OUTER PERIMETER)
G1 X-25.4880 Y-9.3470 F450 (OUTER PERIMETER)
G1 X-25.1250 Y-10.2920 F450 (OUTER PERIMETER)
G1 X-25.0740 Y-10.4120 F450 (OUTER PERIMETER)
G1 X-24.6760 Y-11.3200 F450 (OUTER PERIMETER)
G1 X-24.6290 Y-11.4240 F450 (OUTER PERIMETER)
G1 X-24.6080 Y-11.4690 F450 (OUTER PERIMETER)
G1 X-24.5350 Y-11.6150 F450 (OUTER PERIMETER)
G1 X-24.1030 Y-12.4950 F450 (OUTER PERIMETER)
G1 X-24.1020 Y-12.4950 F450 (OUTER PERIMETER)
G1 X-24.0880 Y-12.5220 F450 (OUTER PERIMETER)
G1 X-24.0060 Y-12.6710 F450 (OUTER PERIMETER)
G1 X-23.5330 Y-13.5360 F450 (OUTER PERIMETER)
G1 X-23.4400 Y-13.6920 F450 (OUTER PERIMETER)
G1 X-23.4410 Y-13.6920 F450 (OUTER PERIMETER)
G1 X-22.9370 Y-14.5200 F450 (OUTER PERIMETER)
G1 X-22.9030 Y-14.5750 F450 (OUTER PERIMETER)
G1 X-22.8430 Y-14.6670 F450 (OUTER PERIMETER)
G1 X-22.7660 Y-14.7780 F450 (OUTER PERIMETER)
G1 X-22.2190 Y-15.5960 F450 (OUTER PERIMETER)
G1 X-22.2170 Y-15.5980 F450 (OUTER PERIMETER)
G1 X-22.2070 Y-15.6120 F450 (OUTER PERIMETER)
G1 X-22.0930 Y-15.7670 F450 (OUTER PERIMETER)
G1 X-21.5040 Y-16.5660 F450 (OUTER PERIMETER)
G1 X-21.4080 Y-16.6860 F450 (OUTER PERIMETER)
G1 X-20.7910 Y-17.4510 F450 (OUTER PERIMETER)
G1 X-20.7510 Y-17.4990 F450 (OUTER PERIMETER)
G1 X-20.6780 Y-17.5840 F450 (OUTER PERIMETER)
G1 X-20.5930 Y-17.6770 F450 (OUTER PERIMETER)
G1 X-19.9320 Y-18.4250 F450 (OUTER PERIMETER)
G1 X-19.7830 Y-18.5780 F450 (OUTER PERIMETER)
G1 X-19.0840 Y-19.3000 F450 (OUTER PERIMETER)
G1 X-18.9730 Y-19.4070 F450 (OUTER PERIMETER)
G1 X-18.2590 Y-20.0810 F450 (OUTER PERIMETER)
G1 X-18.2290 Y-20.1090 F450 (OUTER PERIMETER)
G1 X-18.1270 Y-20.2000 F450 (OUTER PERIMETER)
G1 X-18.0490 Y-20.2650 F450 (OUTER PERIMETER)
G1 X-17.3120 Y-20.9030 F450 (OUTER PERIMETER)
G1 X-17.2720 Y-20.9350 F450 (OUTER PERIMETER)
G1 X-17.1210 Y-21.0540 F450 (OUTER PERIMETER)
G1 X-16.3500 Y-21.6630 F450 (OUTER PERIMETER)
G1 X-16.2130 Y-21.7620 F450 (OUTER PERIMETER)
G1 X-15.4150 Y-22.3360 F450 (OUTER PERIMETER)
G1 X-15.3880 Y-22.3550 F450 (OUTER PERIMETER)
G1 X-15.3800 Y-22.3600 F450 (OUTER PERIMETER)
G1 X-15.3660 Y-22.3700 F450 (OUTER PERIMETER)
G1 X-15.2810 Y-22.4270 F450 (OUTER PERIMETER)
G1 X-14.4340 Y-22.9810 F450 (OUTER PERIMETER)
G1 X-14.3730 Y-23.0200 F450 (OUTER PERIMETER)
G1 X-14.3090 Y-23.0590 F450 (OUTER PERIMETER)
G1 X-14.1600 Y-23.1460 F450 (OUTER PERIMETER)
G1 X-13.3210 Y-23.6430 F450 (OUTER PERIMETER)
G1 X-12.2870 Y-24.1970 F450 (OUTER PERIMETER)
G1 X-12.2670 Y-24.2060 F450 (OUTER PERIMETER)
G1 X-12.1210 Y-24.2780 F450 (OUTER PERIMETER)
G1 X-12.1210 Y-24.2790 F450 (OUTER PERIMETER)
G1 X-11.2490 Y-24.6950 F450 (OUTER PERIMETER)
G1 X-11.1620 Y-24.7350 F450 (OUTER PERIMETER)
G1 X-11.1060 Y-24.7600 F450 (OUTER PERIMETER)
G1 X-10.9500 Y-24.8240 F450 (OUTER PERIMETER)
G1 X-10.0430 Y-25.2090 F450 (OUTER PERIMETER)
G1 X-10.0250 Y-25.2160 F450 (OUTER PERIMETER)
G1 X-9.8570 Y-25.2790 F450 (OUTER PERIMETER)
G1 X-8.9270 Y-25.6240 F450 (OUTER PERIMETER)
G1 X-8.9170 Y-25.6280 F450 (OUTER PERIMETER)
G1 X-8.9150 Y-25.6290 F450 (OUTER PERIMETER)
G1 X-8.7630 Y-25.6800 F450 (OUTER PERIMETER)
G1 X-7.8390 Y-25.9780 F450 (OUTER PERIMETER)
G1 X-7.7690 Y-26.0000 F450 (OUTER PERIMETER)
G1 X-7.7000 Y-26.0190 F450 (OUTER PERIMETER)
G1 X-7.5360 Y-26.0630 F450 (OUTER PERIMETER)
G1 X-6.5790 Y-26.3250 F450 (OUTER PERIMETER)
G1 X-6.3840 Y-26.3690 F450 (OUTER PERIMETER)
G1 X-5.4100 Y-26.5900 F450 (OUTER PERIMETER)
G1 X-5.2530 Y-26.6190 F450 (OUTER PERIMETER)
G1 X-4.2910 Y-26.7920 F450 (OUTER PERIMETER)
G1 X-4.2360 Y-26.8010 F450 (OUTER PERIMETER)
G1 X-4.1200 Y-26.8180 F450 (OUTER PERIMETER)
G1 X-3.9940 Y-26.8340 F450 (OUTER PERIMETER)
G1 X-3.0330 Y-26.9630 F450 (OUTER PERIMETER)
G1 X-2.9990 Y-26.9670 F450 (OUTER PERIMETER)
G1 X-2.8710 Y-26.9780 F450 (OUTER PERIMETER)
G1 X-2.8650 Y-26.9780 F450 (OUTER PERIMETER)
G1 X-1.8180 Y-27.0720 F450 (OUTER PERIMETER)
G1 X-1.6460 Y-27.0800 F450 (OUTER PERIMETER)
G1 X-0.6490 Y-27.1260 F450 (OUTER PERIMETER)
G1 X-0.6360 Y-27.1260 F450 (OUTER PERIMETER)
G1 X-0.4980 Y-27.1270 F450 (OUTER PERIMETER)
G1 X0.4870 Y-27.1270 F450 (OUTER PERIMETER)
G1 X0.6250 Y-27.1260 F450 (OUTER PERIMETER)
G1 X0.6400 Y-27.1260 F450 (OUTER PERIMETER)
G1 X0.8280 Y-27.1150 F450 (OUTER PERIMETER)
G1 X1.8150 Y-27.0710 F450 (OUTER PERIMETER)
G1 X1.9910 Y-27.0560 F450 (OUTER PERIMETER)
G1 X2.9820 Y-26.9680 F450 (OUTER PERIMETER)
G1 X3.0130 Y-26.9650 F450 (OUTER PERIMETER)
G1 X3.1380 Y-26.9490 F450 (OUTER PERIMETER)
G1 X4.1080 Y-26.8190 F450 (OUTER PERIMETER)
G1 X4.1080 Y-26.8180 F450 (OUTER PERIMETER)
G1 X4.2250 Y-26.8010 F450 (OUTER PERIMETER)
G1 X4.2850 Y-26.7910 F450 (OUTER PERIMETER)
G1 X4.4400 Y-26.7620 F450 (OUTER PERIMETER)
G1 X5.4030 Y-26.5890 F450 (OUTER PERIMETER)
G1 X5.5890 Y-26.5470 F450 (OUTER PERIMETER)
G1 X6.5570 Y-26.3280 F450 (OUTER PERIMETER)
G1 X6.5840 Y-26.3210 F450 (OUTER PERIMETER)
G1 X6.7040 Y-26.2890 F450 (OUTER PERIMETER)
G1 X7.6800 Y-26.0210 F450 (OUTER PERIMETER)
G1 X7.7390 Y-26.0050 F450 (OUTER PERIMETER)
G1 X7.8340 Y-25.9760 F450 (OUTER PERIMETER)
G1 X7.9670 Y-25.9310 F450 (OUTER PERIMETER)
G1 X8.9070 Y-25.6280 F450 (OUTER PERIMETER)
G1 X8.9190 Y-25.6240 F450 (OUTER PERIMETER)
G1 X9.0940 Y-25.5590 F450 (OUTER PERIMETER)
G1 X10.0150 Y-25.2160 F450 (OUTER PERIMETER)
G1 X10.0330 Y-25.2090 F450 (OUTER PERIMETER)
G1 X10.1640 Y-25.1550 F450 (OUTER PERIMETER)
G1 X11.0950 Y-24.7600 F450 (OUTER PERIMETER)
G1 X11.1580 Y-24.7320 F450 (OUTER PERIMETER)
G1 X11.2010 Y-24.7120 F450 (OUTER PERIMETER)
G1 X11.3560 Y-24.6370 F450 (OUTER PERIMETER)
G1 X12.2480 Y-24.2110 F450 (OUTER PERIMETER)
G1 X12.2740 Y-24.1980 F450 (OUTER PERIMETER)
G1 X12.4300 Y-24.1130 F450 (OUTER PERIMETER)
G1 X13.2950 Y-23.6520 F450 (OUTER PERIMETER)
G1 X13.4400 Y-23.5680 F450 (OUTER PERIMETER)
G1 X14.2900 Y-23.0640 F450 (OUTER PERIMETER)
G1 X14.3460 Y-23.0300 F450 (OUTER PERIMETER)
G1 X14.4240 Y-22.9810 F450 (OUTER PERIMETER)
G1 X14.5360 Y-22.9050 F450 (OUTER PERIMETER)
G1 X15.3950 Y-22.3430 F450 (OUTER PERIMETER)
G1 X15.5460 Y-22.2330 F450 (OUTER PERIMETER)
G1 X16.3630 Y-21.6450 F450 (OUTER PERIMETER)
G1 X16.4750 Y-21.5580 F450 (OUTER PERIMETER)
G1 X16.4740 Y-21.5570 F450 (OUTER PERIMETER)
G1 X17.2680 Y-20.9290 F450 (OUTER PERIMETER)
G1 X17.3160 Y-20.8910 F450 (OUTER PERIMETER)
G1 X17.3710 Y-20.8450 F450 (OUTER PERIMETER)
G1 X18.1160 Y-20.2000 F450 (OUTER PERIMETER)
G1 X18.2060 Y-20.1200 F450 (OUTER PERIMETER)
G1 X18.2360 Y-20.0930 F450 (OUTER PERIMETER)
G1 X18.3790 Y-19.9570 F450 (OUTER PERIMETER)
G1 X19.0910 Y-19.2830 F450 (OUTER PERIMETER)
G1 X19.2130 Y-19.1580 F450 (OUTER PERIMETER)
G1 X19.9160 Y-18.4300 F450 (OUTER PERIMETER)
G1 X20.0180 Y-18.3180 F450 (OUTER PERIMETER)
G1 X20.6670 Y-17.5840 F450 (OUTER PERIMETER)
G1 X20.7480 Y-17.4910 F450 (OUTER PERIMETER)
G1 X20.7620 Y-17.4740 F450 (OUTER PERIMETER)
G1 X20.8740 Y-17.3320 F450 (OUTER PERIMETER)
G1 X21.4930 Y-16.5660 F450 (OUTER PERIMETER)
G1 X21.6070 Y-16.4130 F450 (OUTER PERIMETER)
G1 X22.1980 Y-15.6110 F450 (OUTER PERIMETER)
G1 X22.2810 Y-15.4900 F450 (OUTER PERIMETER)
G1 X22.8320 Y-14.6670 F450 (OUTER PERIMETER)
G1 X22.8920 Y-14.5750 F450 (OUTER PERIMETER)
G1 X22.9040 Y-14.5570 F450 (OUTER PERIMETER)
G1 X22.9990 Y-14.3960 F450 (OUTER PERIMETER)
G1 X23.5040 Y-13.5670 F450 (OUTER PERIMETER)
G1 X23.5210 Y-13.5370 F450 (OUTER PERIMETER)
G1 X23.6100 Y-13.3750 F450 (OUTER PERIMETER)
G1 X24.0780 Y-12.5220 F450 (OUTER PERIMETER)
G1 X24.0920 Y-12.4950 F450 (OUTER PERIMETER)
G1 X24.1560 Y-12.3670 F450 (OUTER PERIMETER)
G1 X24.5900 Y-11.4860 F450 (OUTER PERIMETER)
G1 X24.6190 Y-11.4240 F450 (OUTER PERIMETER)
G1 X24.6660 Y-11.3200 F450 (OUTER PERIMETER)
G1 X24.7170 Y-11.2000 F450 (OUTER PERIMETER)
G1 X25.1120 Y-10.2970 F450 (OUTER PERIMETER)
G1 X25.1230 Y-10.2700 F450 (OUTER PERIMETER)
G1 X25.1890 Y-10.0970 F450 (OUTER PERIMETER)
G1 X25.5540 Y-9.1490 F450 (OUTER PERIMETER)
G1 X25.5960 Y-9.0230 F450 (OUTER PERIMETER)
G1 X25.9180 Y-8.0630 F450 (OUTER PERIMETER)
G1 X25.9240 Y-8.0460 F450 (OUTER PERIMETER)
G1 X25.9530 Y-7.9480 F450 (OUTER PERIMETER)
G1 X25.9940 Y-7.8000 F450 (OUTER PERIMETER)
G1 X26.2670 Y-6.8440 F450 (OUTER PERIMETER)
G1 X26.3330 Y-6.5610 F450 (OUTER PERIMETER)
G1 X26.3350 Y-6.5550 F450 (OUTER PERIMETER)
G1 X26.5430 Y-5.6800 F450 (OUTER PERIMETER)
G1 X26.5750 Y-5.5180 F450 (OUTER PERIMETER)
G1 X26.7660 Y-4.5240 F450 (OUTER PERIMETER)
G1 X26.7730 Y-4.4850 F450 (OUTER PERIMETER)
G1 X26.7880 Y-4.3930 F450 (OUTER PERIMETER)
G1 X26.7870 Y-4.3930 F450 (OUTER PERIMETER)
G1 X26.9330 Y-3.3920 F450 (OUTER PERIMETER)
G1 X26.9340 Y-3.3920 F450 (OUTER PERIMETER)
G1 X26.9430 Y-3.3250 F450 (OUTER PERIMETER)
G1 X26.9490 Y-3.2700 F450 (OUTER PERIMETER)
G1 X26.9680 Y-3.0650 F450 (OUTER PERIMETER)
G1 X27.0660 Y-2.1050 F450 (OUTER PERIMETER)
G1 X27.0780 Y-1.9020 F450 (OUTER PERIMETER)
G1 X27.0790 Y-1.9020 F450 (OUTER PERIMETER)
G1 X27.1320 Y-0.9370 F450 (OUTER PERIMETER)
G1 X27.1340 Y-0.8810 F450 (OUTER PERIMETER)
G1 X27.1380 Y-0.7610 F450 (OUTER PERIMETER)
G1 X27.1370 Y-0.7610 F450 (OUTER PERIMETER)
G1 X27.1490 Y-0.0300 F450 (OUTER PERIMETER)
G1 X27.1490 Y0.0830 F450 (OUTER PERIMETER)
G1 X27.1480 Y0.3040 F450 (OUTER PERIMETER)
G1 X27.1460 Y0.3930 F450 (OUTER PERIMETER)
G1 X27.1390 Y0.5530 F450 (OUTER PERIMETER)
G1 X27.1070 Y1.5320 F450 (OUTER PERIMETER)
G1 X27.0920 Y1.7260 F450 (OUTER PERIMETER)
G1 X27.0130 Y2.7300 F450 (OUTER PERIMETER)
G1 X26.9960 Y2.8820 F450 (OUTER PERIMETER)
G1 X26.8790 Y3.8430 F450 (OUTER PERIMETER)
G1 X26.8660 Y3.9360 F450 (OUTER PERIMETER)
G1 X26.8570 Y3.9920 F450 (OUTER PERIMETER)
G1 X26.8260 Y4.1690 F450 (OUTER PERIMETER)
G1 X26.6590 Y5.1610 F450 (OUTER PERIMETER)
G1 X26.6210 Y5.3330 F450 (OUTER PERIMETER)
G1 X26.4130 Y6.3050 F450 (OUTER PERIMETER)
G1 X26.3750 Y6.4550 F450 (OUTER PERIMETER)
G1 X26.3740 Y6.4550 F450 (OUTER PERIMETER)
G1 X26.1180 Y7.4340 F450 (OUTER PERIMETER)
G1 X26.1090 Y7.4690 F450 (OUTER PERIMETER)
G1 X26.0860 Y7.5450 F450 (OUTER PERIMETER)
G1 X26.0350 Y7.7060 F450 (OUTER PERIMETER)
G1 X25.7440 Y8.6450 F450 (OUTER PERIMETER)
G1 X25.6710 Y8.8470 F450 (OUTER PERIMETER)
G1 X25.3440 Y9.7590 F450 (OUTER PERIMETER)
G1 X25.2760 Y9.9270 F450 (OUTER PERIMETER)
G1 X24.9050 Y10.8320 F450 (OUTER PERIMETER)
G1 X24.8780 Y10.8920 F450 (OUTER PERIMETER)
G1 X24.8400 Y10.9790 F450 (OUTER PERIMETER)
G1 X24.7800 Y11.1040 F450 (OUTER PERIMETER)
G1 X24.3620 Y12.0050 F450 (OUTER PERIMETER)
G1 X24.3580 Y12.0140 F450 (OUTER PERIMETER)
G1 X24.2580 Y12.2040 F450 (OUTER PERIMETER)
G1 X23.8100 Y13.0690 F450 (OUTER PERIMETER)
G1 X23.7240 Y13.2180 F450 (OUTER PERIMETER)
G1 X23.2180 Y14.0950 F450 (OUTER PERIMETER)
G1 X23.2170 Y14.0970 F450 (OUTER PERIMETER)
G1 X23.1410 Y14.2180 F450 (OUTER PERIMETER)
G1 X22.6130 Y15.0460 F450 (OUTER PERIMETER)
G1 X22.5460 Y15.1490 F450 (OUTER PERIMETER)
G1 X22.5400 Y15.1580 F450 (OUTER PERIMETER)
G1 X22.4200 Y15.3260 F450 (OUTER PERIMETER)
G1 X21.8570 Y16.1270 F450 (OUTER PERIMETER)
G1 X21.7410 Y16.2780 F450 (OUTER PERIMETER)
G1 X21.1410 Y17.0570 F450 (OUTER PERIMETER)
G1 X21.1280 Y17.0730 F450 (OUTER PERIMETER)
G1 X21.0290 Y17.1930 F450 (OUTER PERIMETER)
G1 X20.3960 Y17.9410 F450 (OUTER PERIMETER)
G1 X20.3260 Y18.0220 F450 (OUTER PERIMETER)
G1 X20.3110 Y18.0390 F450 (OUTER PERIMETER)
G1 X20.1790 Y18.1790 F450 (OUTER PERIMETER)
G1 X19.5010 Y18.9130 F450 (OUTER PERIMETER)
G1 X19.3760 Y19.0370 F450 (OUTER PERIMETER)
G1 X18.6560 Y19.7480 F450 (OUTER PERIMETER)
G1 X18.6520 Y19.7520 F450 (OUTER PERIMETER)
G1 X18.5580 Y19.8380 F450 (OUTER PERIMETER)
G1 X17.8190 Y20.5060 F450 (OUTER PERIMETER)
G1 X17.7530 Y20.5640 F450 (OUTER PERIMETER)
G1 X17.7070 Y20.6040 F450 (OUTER PERIMETER)
G1 X17.5810 Y20.7050 F450 (OUTER PERIMETER)
G1 X16.8150 Y21.3390 F450 (OUTER PERIMETER)
G1 X16.8050 Y21.3470 F450 (OUTER PERIMETER)
G1 X16.6580 Y21.4580 F450 (OUTER PERIMETER)
G1 X15.8600 Y22.0600 F450 (OUTER PERIMETER)
G1 X15.7390 Y22.1440 F450 (OUTER PERIMETER)
G1 X14.9250 Y22.7030 F450 (OUTER PERIMETER)
G1 X14.8470 Y22.7550 F450 (OUTER PERIMETER)
G1 X14.8160 Y22.7750 F450 (OUTER PERIMETER)
G1 X14.6700 Y22.8640 F450 (OUTER PERIMETER)
G1 X13.8260 Y23.3900 F450 (OUTER PERIMETER)
G1 X13.8250 Y23.3910 F450 (OUTER PERIMETER)
G1 X13.8250 Y23.3900 F450 (OUTER PERIMETER)
G1 X13.8150 Y23.3960 F450 (OUTER PERIMETER)
G1 X13.6420 Y23.4930 F450 (OUTER PERIMETER)
G1 X12.7850 Y23.9750 F450 (OUTER PERIMETER)
G1 X12.7720 Y23.9820 F450 (OUTER PERIMETER)
G1 X12.6390 Y24.0510 F450 (OUTER PERIMETER)
G1 X11.7600 Y24.4950 F450 (OUTER PERIMETER)
G1 X11.7190 Y24.5150 F450 (OUTER PERIMETER)
G1 X11.6130 Y24.5640 F450 (OUTER PERIMETER)
G1 X11.4910 Y24.6170 F450 (OUTER PERIMETER)
G1 X10.5790 Y25.0290 F450 (OUTER PERIMETER)
G1 X10.3800 Y25.1080 F450 (OUTER PERIMETER)
G1 X9.4750 Y25.4670 F450 (OUTER PERIMETER)
G1 X9.3030 Y25.5280 F450 (OUTER PERIMETER)
G1 X8.3630 Y25.8550 F450 (OUTER PERIMETER)
G1 X8.3450 Y25.8610 F450 (OUTER PERIMETER)
G1 X8.2280 Y25.8970 F450 (OUTER PERIMETER)
G1 X7.2580 Y26.1860 F450 (OUTER PERIMETER)
G1 X7.1570 Y26.2160 F450 (OUTER PERIMETER)
G1 X7.1390 Y26.2200 F450 (OUTER PERIMETER)
G1 X6.9430 Y26.2680 F450 (OUTER PERIMETER)
G1 X5.9830 Y26.5080 F450 (OUTER PERIMETER)
G1 X4.8410 Y26.7400 F450 (OUTER PERIMETER)
G1 X4.8010 Y26.7480 F450 (OUTER PERIMETER)
G1 X4.6760 Y26.7690 F450 (OUTER PERIMETER)
G1 X3.7120 Y26.9200 F450 (OUTER PERIMETER)
G1 X3.5950 Y26.9370 F450 (OUTER PERIMETER)
G1 X3.5750 Y26.9390 F450 (OUTER PERIMETER)
G1 X3.3850 Y26.9590 F450 (OUTER PERIMETER)
G1 X2.4090 Y27.0690 F450 (OUTER PERIMETER)
G1 X2.4050 Y27.0690 F450 (OUTER PERIMETER)
G1 X1.2310 Y27.1480 F450 (OUTER PERIMETER)
G1 X1.1920 Y27.1500 F450 (OUTER PERIMETER)
G1 X1.0710 Y27.1540 F450 (OUTER PERIMETER)
G1 X1.0710 Y27.1530 F450 (OUTER PERIMETER)
G1 X0.0590 Y27.1760 F450 (OUTER PERIMETER)
G1 X-0.0050 Y27.1770 F450 (OUTER PERIMETER)
G1 X-0.0740 Y27.1760 F450 (OUTER PERIMETER)
G1 X-0.2310 Y27.1710 F450 (OUTER PERIMETER)
G1 X-1.2380 Y27.1480 F450 (OUTER PERIMETER)
G1 X-1.2450 Y27.1480 F450 (OUTER PERIMETER)
G1 X-2.4110 Y27.0700 F450 (OUTER PERIMETER)
G1 X-2.5810 Y27.0520 F450 (OUTER PERIMETER)
G1 X-3.5700 Y26.9410 F450 (OUTER PERIMETER)
G1 X-3.6140 Y26.9360 F450 (OUTER PERIMETER)
G1 X-3.6970 Y26.9240 F450 (OUTER PERIMETER)
G1 X-3.8500 Y26.8990 F450 (OUTER PERIMETER)
G1 X-4.8200 Y26.7460 F450 (OUTER PERIMETER)
G1 X-4.8520 Y26.7400 F450 (OUTER PERIMETER)
G1 X-5.0350 Y26.7020 F450 (OUTER PERIMETER)
G1 X-5.9920 Y26.5080 F450 (OUTER PERIMETER)
G1 X-6.1680 Y26.4650 F450 (OUTER PERIMETER)
G1 X-7.1300 Y26.2250 F450 (OUTER PERIMETER)
G1 X-7.1900 Y26.2090 F450 (OUTER PERIMETER)
G1 X-7.2580 Y26.1890 F450 (OUTER PERIMETER)
G1 X-7.4010 Y26.1450 F450 (OUTER PERIMETER)
G1 X-8.3570 Y25.8610 F450 (OUTER PERIMETER)
G1 X-8.3620 Y25.8590 F450 (OUTER PERIMETER)
G1 X-8.5580 Y25.7890 F450 (OUTER PERIMETER)
G1 X-9.4770 Y25.4700 F450 (OUTER PERIMETER)
G1 X-9.6490 Y25.4030 F450 (OUTER PERIMETER)
G1 X-10.5820 Y25.0320 F450 (OUTER PERIMETER)
